;-- START GCODE --
;Sliced for Type A Machines Series 1
;Sliced at: Sun 26-03-2017 13:07:39
;Basic settings:
;	Layer height: 0.15
;	Walls: 0.8
;	Fill: 5
;	Print Speed: 60
;	Support: 0
;	Retraction Speed: 35
;	Retraction Distance: 0.4
;Print time: 3 hours 47 minutes
;Filament used: 13.312m 39.0g
;Settings based on: Generic PLA
G21        ;metric values
G90        ;absolute positioning
G28     ;move to endstops
G29		;allows for auto-levelling
G1 Z15.0 F12000 ;move the platform down 15mm
G1 X150 Y5 F12000 ;center
M109 S220 ;Heat To temp
G1 X150 Y5 Z0.3 ;move the platform to purge extrusion
G92 E0 ;zero the extruded length
G1 F200 X250 E30 ;extrude 30mm of feed stock
G92 E0 ;zero the extruded length again
G1 X150 Y150  Z25 F12000 ;recenter and begin
G1 F12000

;Layer count: 120
;LAYER:0
M107
G0 F12000 X116.995 Y127.343 Z0.200
;TYPE:SKIRT
G1 F1800 X116.995 Y199.999 E2.41655
G1 X189.643 Y199.999 E4.83283
G1 X189.643 Y127.343 E7.24938
G1 X116.995 Y127.343 E9.66566
G0 F12000 X116.595 Y126.943
G1 F1800 X116.595 Y200.399 E12.10882
G1 X190.043 Y200.399 E14.55171
G1 X190.043 Y126.943 E16.99486
G1 X116.595 Y126.943 E19.43776
G0 F12000 X116.195 Y126.543
G1 F1800 X116.195 Y200.799 E21.90752
G1 X190.443 Y200.799 E24.37702
G1 X190.443 Y126.543 E26.84678
G1 X116.195 Y126.543 E29.31628
G0 F12000 X115.795 Y126.143
G1 F1800 X115.795 Y201.199 E31.81265
G1 X190.843 Y201.199 E34.30876
G1 X190.843 Y126.143 E36.80513
G1 X115.795 Y126.143 E39.30124
G0 F12000 X115.395 Y125.743
G1 F1800 X115.395 Y201.599 E41.82422
G1 X191.243 Y201.599 E44.34694
G1 X191.243 Y125.743 E46.86992
G1 X115.395 Y125.743 E49.39263
G0 F12000 X114.995 Y125.343
G1 F1800 X114.995 Y201.999 E51.94222
G1 X191.643 Y201.999 E54.49154
G1 X191.643 Y125.343 E57.04113
G1 X114.995 Y125.343 E59.59045
G0 F12000 X114.595 Y124.943
G1 F1800 X114.595 Y202.399 E62.16665
G1 X192.043 Y202.399 E64.74258
G1 X192.043 Y124.943 E67.31878
G1 X114.595 Y124.943 E69.89471
G0 F12000 X114.195 Y124.543
G1 F1800 X114.195 Y202.799 E72.49752
G1 X192.443 Y202.799 E75.10005
G1 X192.443 Y124.543 E77.70286
G1 X114.195 Y124.543 E80.30540
G0 F12000 X113.795 Y124.143
G1 F1800 X113.795 Y203.199 E82.93481
G1 X192.843 Y203.199 E85.56396
G1 X192.843 Y124.143 E88.19337
G1 X113.795 Y124.143 E90.82252
G0 F12000 X113.395 Y123.743
G1 F1800 X113.395 Y203.599 E93.47854
G1 X193.243 Y203.599 E96.13430
G1 X193.243 Y123.743 E98.79032
G1 X113.395 Y123.743 E101.44607
G0 F12000 X97.839 Y85.139
G1 F1800 X207.161 Y85.139 E105.08214
G1 X207.161 Y219.861 E109.56301
G1 X97.839 Y219.861 E113.19907
G1 X97.839 Y85.139 E117.67995
G0 F12000 X97.439 Y84.739
G1 F1800 X207.561 Y84.739 E121.34262
G1 X207.561 Y220.261 E125.85010
G1 X97.439 Y220.261 E129.51277
G1 X97.439 Y84.739 E134.02025
G0 F12000 X97.039 Y84.339
G1 F1800 X207.961 Y84.339 E137.70953
G1 X207.961 Y220.661 E142.24362
G1 X97.039 Y220.661 E145.93290
G1 X97.039 Y84.339 E150.46699
G0 F12000 X96.639 Y83.939
G1 F1800 X208.361 Y83.939 E154.18288
G1 X208.361 Y221.061 E158.74357
G1 X96.639 Y221.061 E162.45946
G1 X96.639 Y83.939 E167.02016
G0 F12000 X96.239 Y83.539
G1 F1800 X208.761 Y83.539 E170.76266
G1 X208.761 Y221.461 E175.34996
G1 X96.239 Y221.461 E179.09246
G1 X96.239 Y83.539 E183.67976
G0 F12000 X95.839 Y83.139
G1 F1800 X209.161 Y83.139 E187.44887
G1 X209.161 Y221.861 E192.06278
G1 X95.839 Y221.861 E195.83188
G1 X95.839 Y83.139 E200.44580
G0 F12000 X95.439 Y82.739
G1 F1800 X209.561 Y82.739 E204.24151
G1 X209.561 Y222.261 E208.88203
G1 X95.439 Y222.261 E212.67774
G1 X95.439 Y82.739 E217.31826
G0 F12000 X95.039 Y82.339
G1 F1800 X209.961 Y82.339 E221.14058
G1 X209.961 Y222.661 E225.80771
G1 X95.039 Y222.661 E229.63003
G1 X95.039 Y82.339 E234.29716
G0 F12000 X94.639 Y81.939
G1 F1800 X210.361 Y81.939 E238.14609
G1 X210.361 Y223.061 E242.83983
G1 X94.639 Y223.061 E246.68876
G1 X94.639 Y81.939 E251.38250
G0 F12000 X94.239 Y81.539
G1 F1800 X210.761 Y81.539 E255.25803
G1 X210.761 Y223.461 E259.97838
G1 X94.239 Y223.461 E263.85392
G1 X94.239 Y81.539 E268.57426
G1 F2100 E268.17426
G0 F12000 X98.639 Y85.939
;TYPE:WALL-INNER
G1 F2100 E268.57426
G1 F1800 X206.361 Y85.939 E272.15711
G1 X206.361 Y219.061 E276.58476
G1 X98.639 Y219.061 E280.16761
G1 X98.639 Y85.939 E284.59527
G1 F2100 E284.19527
G0 F12000 X112.595 Y122.943
G1 F2100 E284.59527
G1 F1800 X112.595 Y204.399 E287.30451
G1 X194.043 Y204.399 E290.01348
G1 X194.043 Y122.943 E292.72271
G1 X112.595 Y122.943 E295.43169
G0 F12000 X112.995 Y123.343
;TYPE:WALL-OUTER
G1 F1800 X112.995 Y203.999 E298.11432
G1 X193.643 Y203.999 E300.79668
G1 X193.643 Y123.343 E303.47931
G1 X112.995 Y123.343 E306.16167
G1 F2100 E305.76167
G0 F12000 X98.239 Y85.539
G1 F2100 E306.16167
G1 F1800 X206.761 Y85.539 E309.77113
G1 X206.761 Y219.461 E314.22539
G1 X98.239 Y219.461 E317.83485
G1 X98.239 Y85.539 E322.28911
G0 F12000 X98.800 Y86.079
;TYPE:SKIN
G1 F1800 X98.800 Y218.921 E326.70745
G0 F12000 X99.200 Y218.921
G1 F1800 X99.200 Y86.079 E331.12580
G0 F12000 X99.600 Y86.079
G1 F1800 X99.600 Y218.921 E335.54414
G0 F12000 X100.000 Y218.921
G1 F1800 X100.000 Y86.079 E339.96248
G0 F12000 X100.400 Y86.079
G1 F1800 X100.400 Y218.921 E344.38083
G0 F12000 X100.800 Y218.921
G1 F1800 X100.800 Y86.079 E348.79917
G0 F12000 X101.200 Y86.079
G1 F1800 X101.200 Y218.921 E353.21751
G0 F12000 X101.600 Y218.921
G1 F1800 X101.600 Y86.079 E357.63585
G0 F12000 X102.000 Y86.079
G1 F1800 X102.000 Y218.921 E362.05420
G0 F12000 X102.400 Y218.921
G1 F1800 X102.400 Y86.079 E366.47254
G0 F12000 X102.800 Y86.079
G1 F1800 X102.800 Y218.921 E370.89088
G0 F12000 X103.200 Y218.921
G1 F1800 X103.200 Y86.079 E375.30923
G0 F12000 X103.600 Y86.079
G1 F1800 X103.600 Y218.921 E379.72757
G0 F12000 X104.000 Y218.921
G1 F1800 X104.000 Y86.079 E384.14591
G0 F12000 X104.400 Y86.079
G1 F1800 X104.400 Y218.921 E388.56426
G0 F12000 X104.800 Y218.921
G1 F1800 X104.800 Y86.079 E392.98260
G0 F12000 X105.200 Y86.079
G1 F1800 X105.200 Y218.921 E397.40094
G0 F12000 X105.600 Y218.921
G1 F1800 X105.600 Y86.079 E401.81928
G0 F12000 X106.000 Y86.079
G1 F1800 X106.000 Y218.921 E406.23763
G0 F12000 X106.400 Y218.921
G1 F1800 X106.400 Y86.079 E410.65597
G0 F12000 X106.800 Y86.079
G1 F1800 X106.800 Y218.921 E415.07431
G0 F12000 X107.200 Y218.921
G1 F1800 X107.200 Y86.079 E419.49266
G0 F12000 X107.600 Y86.079
G1 F1800 X107.600 Y218.921 E423.91100
G0 F12000 X108.000 Y218.921
G1 F1800 X108.000 Y86.079 E428.32934
G0 F12000 X108.400 Y86.079
G1 F1800 X108.400 Y218.921 E432.74768
G0 F12000 X108.800 Y218.921
G1 F1800 X108.800 Y86.079 E437.16603
G0 F12000 X109.200 Y86.079
G1 F1800 X109.200 Y218.921 E441.58437
G0 F12000 X109.600 Y218.921
G1 F1800 X109.600 Y86.079 E446.00271
G0 F12000 X110.000 Y86.079
G1 F1800 X110.000 Y218.921 E450.42106
G0 F12000 X110.400 Y218.921
G1 F1800 X110.400 Y86.079 E454.83940
G0 F12000 X110.800 Y86.079
G1 F1800 X110.800 Y218.921 E459.25774
G0 F12000 X111.200 Y218.921
G1 F1800 X111.200 Y86.079 E463.67608
G0 F12000 X111.600 Y86.079
G1 F1800 X111.600 Y218.921 E468.09443
G0 F12000 X112.000 Y218.921
G1 F1800 X112.000 Y86.079 E472.51277
G0 F12000 X112.400 Y86.079
G1 F1800 X112.400 Y218.921 E476.93111
G0 F12000 X112.800 Y218.921
G1 F1800 X112.800 Y204.539 E477.40946
G0 F12000 X113.200 Y204.539
G1 F1800 X113.200 Y218.921 E477.88781
G0 F12000 X113.600 Y218.921
G1 F1800 X113.600 Y204.539 E478.36615
G0 F12000 X114.000 Y204.539
G1 F1800 X114.000 Y218.921 E478.84450
G0 F12000 X114.400 Y218.921
G1 F1800 X114.400 Y204.539 E479.32285
G0 F12000 X114.800 Y204.539
G1 F1800 X114.800 Y218.921 E479.80120
G0 F12000 X115.200 Y218.921
G1 F1800 X115.200 Y204.539 E480.27954
G0 F12000 X115.600 Y204.539
G1 F1800 X115.600 Y218.921 E480.75789
G0 F12000 X116.000 Y218.921
G1 F1800 X116.000 Y204.539 E481.23624
G0 F12000 X116.400 Y204.539
G1 F1800 X116.400 Y218.921 E481.71458
G0 F12000 X116.800 Y218.921
G1 F1800 X116.800 Y204.539 E482.19293
G0 F12000 X117.200 Y204.539
G1 F1800 X117.200 Y218.921 E482.67128
G0 F12000 X117.600 Y218.921
G1 F1800 X117.600 Y204.539 E483.14963
G0 F12000 X118.000 Y204.539
G1 F1800 X118.000 Y218.921 E483.62797
G0 F12000 X118.400 Y218.921
G1 F1800 X118.400 Y204.539 E484.10632
G0 F12000 X118.800 Y204.539
G1 F1800 X118.800 Y218.921 E484.58467
G0 F12000 X119.200 Y218.921
G1 F1800 X119.200 Y204.539 E485.06302
G0 F12000 X119.600 Y204.539
G1 F1800 X119.600 Y218.921 E485.54136
G0 F12000 X120.000 Y218.921
G1 F1800 X120.000 Y204.539 E486.01971
G0 F12000 X120.400 Y204.539
G1 F1800 X120.400 Y218.921 E486.49806
G0 F12000 X120.800 Y218.921
G1 F1800 X120.800 Y204.539 E486.97640
G0 F12000 X121.200 Y204.539
G1 F1800 X121.200 Y218.921 E487.45475
G0 F12000 X121.600 Y218.921
G1 F1800 X121.600 Y204.539 E487.93310
G0 F12000 X122.000 Y204.539
G1 F1800 X122.000 Y218.921 E488.41145
G0 F12000 X122.400 Y218.921
G1 F1800 X122.400 Y204.539 E488.88979
G0 F12000 X122.800 Y204.539
G1 F1800 X122.800 Y218.921 E489.36814
G0 F12000 X123.200 Y218.921
G1 F1800 X123.200 Y204.539 E489.84649
G0 F12000 X123.600 Y204.539
G1 F1800 X123.600 Y218.921 E490.32484
G0 F12000 X124.000 Y218.921
G1 F1800 X124.000 Y204.539 E490.80318
G0 F12000 X124.400 Y204.539
G1 F1800 X124.400 Y218.921 E491.28153
G0 F12000 X124.800 Y218.921
G1 F1800 X124.800 Y204.539 E491.75988
G0 F12000 X125.200 Y204.539
G1 F1800 X125.200 Y218.921 E492.23822
G0 F12000 X125.600 Y218.921
G1 F1800 X125.600 Y204.539 E492.71657
G0 F12000 X126.000 Y204.539
G1 F1800 X126.000 Y218.921 E493.19492
G0 F12000 X126.400 Y218.921
G1 F1800 X126.400 Y204.539 E493.67327
G0 F12000 X126.800 Y204.539
G1 F1800 X126.800 Y218.921 E494.15161
G0 F12000 X127.200 Y218.921
G1 F1800 X127.200 Y204.539 E494.62996
G0 F12000 X127.600 Y204.539
G1 F1800 X127.600 Y218.921 E495.10831
G0 F12000 X128.000 Y218.921
G1 F1800 X128.000 Y204.539 E495.58666
G0 F12000 X128.400 Y204.539
G1 F1800 X128.400 Y218.921 E496.06500
G0 F12000 X128.800 Y218.921
G1 F1800 X128.800 Y204.539 E496.54335
G0 F12000 X129.200 Y204.539
G1 F1800 X129.200 Y218.921 E497.02170
G0 F12000 X129.600 Y218.921
G1 F1800 X129.600 Y204.539 E497.50004
G0 F12000 X130.000 Y204.539
G1 F1800 X130.000 Y218.921 E497.97839
G0 F12000 X130.400 Y218.921
G1 F1800 X130.400 Y204.539 E498.45674
G0 F12000 X130.800 Y204.539
G1 F1800 X130.800 Y218.921 E498.93509
G0 F12000 X131.200 Y218.921
G1 F1800 X131.200 Y204.539 E499.41343
G0 F12000 X131.600 Y204.539
G1 F1800 X131.600 Y218.921 E499.89178
G0 F12000 X132.000 Y218.921
G1 F1800 X132.000 Y204.539 E500.37013
G0 F12000 X132.400 Y204.539
G1 F1800 X132.400 Y218.921 E500.84848
G0 F12000 X132.800 Y218.921
G1 F1800 X132.800 Y204.539 E501.32682
G0 F12000 X133.200 Y204.539
G1 F1800 X133.200 Y218.921 E501.80517
G0 F12000 X133.600 Y218.921
G1 F1800 X133.600 Y204.539 E502.28352
G0 F12000 X134.000 Y204.539
G1 F1800 X134.000 Y218.921 E502.76186
G0 F12000 X134.400 Y218.921
G1 F1800 X134.400 Y204.539 E503.24021
G0 F12000 X134.800 Y204.539
G1 F1800 X134.800 Y218.921 E503.71856
G0 F12000 X135.200 Y218.921
G1 F1800 X135.200 Y204.539 E504.19691
G0 F12000 X135.600 Y204.539
G1 F1800 X135.600 Y218.921 E504.67525
G0 F12000 X136.000 Y218.921
G1 F1800 X136.000 Y204.539 E505.15360
G0 F12000 X136.400 Y204.539
G1 F1800 X136.400 Y218.921 E505.63195
G0 F12000 X136.800 Y218.921
G1 F1800 X136.800 Y204.539 E506.11030
G0 F12000 X137.200 Y204.539
G1 F1800 X137.200 Y218.921 E506.58864
G0 F12000 X137.600 Y218.921
G1 F1800 X137.600 Y204.539 E507.06699
G0 F12000 X138.000 Y204.539
G1 F1800 X138.000 Y218.921 E507.54534
G0 F12000 X138.400 Y218.921
G1 F1800 X138.400 Y204.539 E508.02368
G0 F12000 X138.800 Y204.539
G1 F1800 X138.800 Y218.921 E508.50203
G0 F12000 X139.200 Y218.921
G1 F1800 X139.200 Y204.539 E508.98038
G0 F12000 X139.600 Y204.539
G1 F1800 X139.600 Y218.921 E509.45873
G0 F12000 X140.000 Y218.921
G1 F1800 X140.000 Y204.539 E509.93707
G0 F12000 X140.400 Y204.539
G1 F1800 X140.400 Y218.921 E510.41542
G0 F12000 X140.800 Y218.921
G1 F1800 X140.800 Y204.539 E510.89377
G0 F12000 X141.200 Y204.539
G1 F1800 X141.200 Y218.921 E511.37212
G0 F12000 X141.600 Y218.921
G1 F1800 X141.600 Y204.539 E511.85046
G0 F12000 X142.000 Y204.539
G1 F1800 X142.000 Y218.921 E512.32881
G0 F12000 X142.400 Y218.921
G1 F1800 X142.400 Y204.539 E512.80716
G0 F12000 X142.800 Y204.539
G1 F1800 X142.800 Y218.921 E513.28550
G0 F12000 X143.200 Y218.921
G1 F1800 X143.200 Y204.539 E513.76385
G0 F12000 X143.600 Y204.539
G1 F1800 X143.600 Y218.921 E514.24220
G0 F12000 X144.000 Y218.921
G1 F1800 X144.000 Y204.539 E514.72055
G0 F12000 X144.400 Y204.539
G1 F1800 X144.400 Y218.921 E515.19889
G0 F12000 X144.800 Y218.921
G1 F1800 X144.800 Y204.539 E515.67724
G0 F12000 X145.200 Y204.539
G1 F1800 X145.200 Y218.921 E516.15559
G0 F12000 X145.600 Y218.921
G1 F1800 X145.600 Y204.539 E516.63393
G0 F12000 X146.000 Y204.539
G1 F1800 X146.000 Y218.921 E517.11228
G0 F12000 X146.400 Y218.921
G1 F1800 X146.400 Y204.539 E517.59063
G0 F12000 X146.800 Y204.539
G1 F1800 X146.800 Y218.921 E518.06898
G0 F12000 X147.200 Y218.921
G1 F1800 X147.200 Y204.539 E518.54732
G0 F12000 X147.600 Y204.539
G1 F1800 X147.600 Y218.921 E519.02567
G0 F12000 X148.000 Y218.921
G1 F1800 X148.000 Y204.539 E519.50402
G0 F12000 X148.400 Y204.539
G1 F1800 X148.400 Y218.921 E519.98237
G0 F12000 X148.800 Y218.921
G1 F1800 X148.800 Y204.539 E520.46071
G0 F12000 X149.200 Y204.539
G1 F1800 X149.200 Y218.921 E520.93906
G0 F12000 X149.600 Y218.921
G1 F1800 X149.600 Y204.539 E521.41741
G0 F12000 X150.000 Y204.539
G1 F1800 X150.000 Y218.921 E521.89575
G0 F12000 X150.400 Y218.921
G1 F1800 X150.400 Y204.539 E522.37410
G0 F12000 X150.800 Y204.539
G1 F1800 X150.800 Y218.921 E522.85245
G0 F12000 X151.200 Y218.921
G1 F1800 X151.200 Y204.539 E523.33080
G0 F12000 X151.600 Y204.539
G1 F1800 X151.600 Y218.921 E523.80914
G0 F12000 X152.000 Y218.921
G1 F1800 X152.000 Y204.539 E524.28749
G0 F12000 X152.400 Y204.539
G1 F1800 X152.400 Y218.921 E524.76584
G0 F12000 X152.800 Y218.921
G1 F1800 X152.800 Y204.539 E525.24419
G0 F12000 X153.200 Y204.539
G1 F1800 X153.200 Y218.921 E525.72253
G0 F12000 X153.600 Y218.921
G1 F1800 X153.600 Y204.539 E526.20088
G0 F12000 X154.000 Y204.539
G1 F1800 X154.000 Y218.921 E526.67923
G0 F12000 X154.400 Y218.921
G1 F1800 X154.400 Y204.539 E527.15757
G0 F12000 X154.800 Y204.539
G1 F1800 X154.800 Y218.921 E527.63592
G0 F12000 X155.200 Y218.921
G1 F1800 X155.200 Y204.539 E528.11427
G0 F12000 X155.600 Y204.539
G1 F1800 X155.600 Y218.921 E528.59262
G0 F12000 X156.000 Y218.921
G1 F1800 X156.000 Y204.539 E529.07096
G0 F12000 X156.400 Y204.539
G1 F1800 X156.400 Y218.921 E529.54931
G0 F12000 X156.800 Y218.921
G1 F1800 X156.800 Y204.539 E530.02766
G0 F12000 X157.200 Y204.539
G1 F1800 X157.200 Y218.921 E530.50601
G0 F12000 X157.600 Y218.921
G1 F1800 X157.600 Y204.539 E530.98435
G0 F12000 X158.000 Y204.539
G1 F1800 X158.000 Y218.921 E531.46270
G0 F12000 X158.400 Y218.921
G1 F1800 X158.400 Y204.539 E531.94105
G0 F12000 X158.800 Y204.539
G1 F1800 X158.800 Y218.921 E532.41939
G0 F12000 X159.200 Y218.921
G1 F1800 X159.200 Y204.539 E532.89774
G0 F12000 X159.600 Y204.539
G1 F1800 X159.600 Y218.921 E533.37609
G0 F12000 X160.000 Y218.921
G1 F1800 X160.000 Y204.539 E533.85444
G0 F12000 X160.400 Y204.539
G1 F1800 X160.400 Y218.921 E534.33278
G0 F12000 X160.800 Y218.921
G1 F1800 X160.800 Y204.539 E534.81113
G0 F12000 X161.200 Y204.539
G1 F1800 X161.200 Y218.921 E535.28948
G0 F12000 X161.600 Y218.921
G1 F1800 X161.600 Y204.539 E535.76783
G0 F12000 X162.000 Y204.539
G1 F1800 X162.000 Y218.921 E536.24617
G0 F12000 X162.400 Y218.921
G1 F1800 X162.400 Y204.539 E536.72452
G0 F12000 X162.800 Y204.539
G1 F1800 X162.800 Y218.921 E537.20287
G0 F12000 X163.200 Y218.921
G1 F1800 X163.200 Y204.539 E537.68121
G0 F12000 X163.600 Y204.539
G1 F1800 X163.600 Y218.921 E538.15956
G0 F12000 X164.000 Y218.921
G1 F1800 X164.000 Y204.539 E538.63791
G0 F12000 X164.400 Y204.539
G1 F1800 X164.400 Y218.921 E539.11626
G0 F12000 X164.800 Y218.921
G1 F1800 X164.800 Y204.539 E539.59460
G0 F12000 X165.200 Y204.539
G1 F1800 X165.200 Y218.921 E540.07295
G0 F12000 X165.600 Y218.921
G1 F1800 X165.600 Y204.539 E540.55130
G0 F12000 X166.000 Y204.539
G1 F1800 X166.000 Y218.921 E541.02965
G0 F12000 X166.400 Y218.921
G1 F1800 X166.400 Y204.539 E541.50799
G0 F12000 X166.800 Y204.539
G1 F1800 X166.800 Y218.921 E541.98634
G0 F12000 X167.200 Y218.921
G1 F1800 X167.200 Y204.539 E542.46469
G0 F12000 X167.600 Y204.539
G1 F1800 X167.600 Y218.921 E542.94303
G0 F12000 X168.000 Y218.921
G1 F1800 X168.000 Y204.539 E543.42138
G0 F12000 X168.400 Y204.539
G1 F1800 X168.400 Y218.921 E543.89973
G0 F12000 X168.800 Y218.921
G1 F1800 X168.800 Y204.539 E544.37808
G0 F12000 X169.200 Y204.539
G1 F1800 X169.200 Y218.921 E544.85642
G0 F12000 X169.600 Y218.921
G1 F1800 X169.600 Y204.539 E545.33477
G0 F12000 X170.000 Y204.539
G1 F1800 X170.000 Y218.921 E545.81312
G0 F12000 X170.400 Y218.921
G1 F1800 X170.400 Y204.539 E546.29147
G0 F12000 X170.800 Y204.539
G1 F1800 X170.800 Y218.921 E546.76981
G0 F12000 X171.200 Y218.921
G1 F1800 X171.200 Y204.539 E547.24816
G0 F12000 X171.600 Y204.539
G1 F1800 X171.600 Y218.921 E547.72651
G0 F12000 X172.000 Y218.921
G1 F1800 X172.000 Y204.539 E548.20485
G0 F12000 X172.400 Y204.539
G1 F1800 X172.400 Y218.921 E548.68320
G0 F12000 X172.800 Y218.921
G1 F1800 X172.800 Y204.539 E549.16155
G0 F12000 X173.200 Y204.539
G1 F1800 X173.200 Y218.921 E549.63990
G0 F12000 X173.600 Y218.921
G1 F1800 X173.600 Y204.539 E550.11824
G0 F12000 X174.000 Y204.539
G1 F1800 X174.000 Y218.921 E550.59659
G0 F12000 X174.400 Y218.921
G1 F1800 X174.400 Y204.539 E551.07494
G0 F12000 X174.800 Y204.539
G1 F1800 X174.800 Y218.921 E551.55329
G0 F12000 X175.200 Y218.921
G1 F1800 X175.200 Y204.539 E552.03163
G0 F12000 X175.600 Y204.539
G1 F1800 X175.600 Y218.921 E552.50998
G0 F12000 X176.000 Y218.921
G1 F1800 X176.000 Y204.539 E552.98833
G0 F12000 X176.400 Y204.539
G1 F1800 X176.400 Y218.921 E553.46667
G0 F12000 X176.800 Y218.921
G1 F1800 X176.800 Y204.539 E553.94502
G0 F12000 X177.200 Y204.539
G1 F1800 X177.200 Y218.921 E554.42337
G0 F12000 X177.600 Y218.921
G1 F1800 X177.600 Y204.539 E554.90172
G0 F12000 X178.000 Y204.539
G1 F1800 X178.000 Y218.921 E555.38006
G0 F12000 X178.400 Y218.921
G1 F1800 X178.400 Y204.539 E555.85841
G0 F12000 X178.800 Y204.539
G1 F1800 X178.800 Y218.921 E556.33676
G0 F12000 X179.200 Y218.921
G1 F1800 X179.200 Y204.539 E556.81510
G0 F12000 X179.600 Y204.539
G1 F1800 X179.600 Y218.921 E557.29345
G0 F12000 X180.000 Y218.921
G1 F1800 X180.000 Y204.539 E557.77180
G0 F12000 X180.400 Y204.539
G1 F1800 X180.400 Y218.921 E558.25015
G0 F12000 X180.800 Y218.921
G1 F1800 X180.800 Y204.539 E558.72849
G0 F12000 X181.200 Y204.539
G1 F1800 X181.200 Y218.921 E559.20684
G0 F12000 X181.600 Y218.921
G1 F1800 X181.600 Y204.539 E559.68519
G0 F12000 X182.000 Y204.539
G1 F1800 X182.000 Y218.921 E560.16354
G0 F12000 X182.400 Y218.921
G1 F1800 X182.400 Y204.539 E560.64188
G0 F12000 X182.800 Y204.539
G1 F1800 X182.800 Y218.921 E561.12023
G0 F12000 X183.200 Y218.921
G1 F1800 X183.200 Y204.539 E561.59858
G0 F12000 X183.600 Y204.539
G1 F1800 X183.600 Y218.921 E562.07692
G0 F12000 X184.000 Y218.921
G1 F1800 X184.000 Y204.539 E562.55527
G0 F12000 X184.400 Y204.539
G1 F1800 X184.400 Y218.921 E563.03362
G0 F12000 X184.800 Y218.921
G1 F1800 X184.800 Y204.539 E563.51197
G0 F12000 X185.200 Y204.539
G1 F1800 X185.200 Y218.921 E563.99031
G0 F12000 X185.600 Y218.921
G1 F1800 X185.600 Y204.539 E564.46866
G0 F12000 X186.000 Y204.539
G1 F1800 X186.000 Y218.921 E564.94701
G0 F12000 X186.400 Y218.921
G1 F1800 X186.400 Y204.539 E565.42536
G0 F12000 X186.800 Y204.539
G1 F1800 X186.800 Y218.921 E565.90370
G0 F12000 X187.200 Y218.921
G1 F1800 X187.200 Y204.539 E566.38205
G0 F12000 X187.600 Y204.539
G1 F1800 X187.600 Y218.921 E566.86040
G0 F12000 X188.000 Y218.921
G1 F1800 X188.000 Y204.539 E567.33874
G0 F12000 X188.400 Y204.539
G1 F1800 X188.400 Y218.921 E567.81709
G0 F12000 X188.800 Y218.921
G1 F1800 X188.800 Y204.539 E568.29544
G0 F12000 X189.200 Y204.539
G1 F1800 X189.200 Y218.921 E568.77379
G0 F12000 X189.600 Y218.921
G1 F1800 X189.600 Y204.539 E569.25213
G0 F12000 X190.000 Y204.539
G1 F1800 X190.000 Y218.921 E569.73048
G0 F12000 X190.400 Y218.921
G1 F1800 X190.400 Y204.539 E570.20883
G0 F12000 X190.800 Y204.539
G1 F1800 X190.800 Y218.921 E570.68718
G0 F12000 X191.200 Y218.921
G1 F1800 X191.200 Y204.539 E571.16552
G0 F12000 X191.600 Y204.539
G1 F1800 X191.600 Y218.921 E571.64387
G0 F12000 X192.000 Y218.921
G1 F1800 X192.000 Y204.539 E572.12222
G0 F12000 X192.400 Y204.539
G1 F1800 X192.400 Y218.921 E572.60056
G0 F12000 X192.800 Y218.921
G1 F1800 X192.800 Y204.539 E573.07891
G0 F12000 X193.200 Y204.539
G1 F1800 X193.200 Y218.921 E573.55726
G0 F12000 X193.600 Y218.921
G1 F1800 X193.600 Y204.539 E574.03561
G0 F12000 X194.000 Y204.539
G1 F1800 X194.000 Y218.921 E574.51395
G0 F12000 X194.400 Y218.921
G1 F1800 X194.400 Y86.079 E578.93230
G0 F12000 X194.000 Y86.079
G1 F1800 X194.000 Y122.803 E580.15374
G0 F12000 X193.600 Y122.803
G1 F1800 X193.600 Y86.079 E581.37519
G0 F12000 X193.200 Y86.079
G1 F1800 X193.200 Y122.803 E582.59663
G0 F12000 X192.800 Y122.803
G1 F1800 X192.800 Y86.079 E583.81808
G0 F12000 X192.400 Y86.079
G1 F1800 X192.400 Y122.803 E585.03952
G0 F12000 X192.000 Y122.803
G1 F1800 X192.000 Y86.079 E586.26097
G0 F12000 X191.600 Y86.079
G1 F1800 X191.600 Y122.803 E587.48241
G0 F12000 X191.200 Y122.803
G1 F1800 X191.200 Y86.079 E588.70386
G0 F12000 X190.800 Y86.079
G1 F1800 X190.800 Y122.803 E589.92530
G0 F12000 X190.400 Y122.803
G1 F1800 X190.400 Y86.079 E591.14675
G0 F12000 X190.000 Y86.079
G1 F1800 X190.000 Y122.803 E592.36819
G0 F12000 X189.600 Y122.803
G1 F1800 X189.600 Y86.079 E593.58964
G0 F12000 X189.200 Y86.079
G1 F1800 X189.200 Y122.803 E594.81108
G0 F12000 X188.800 Y122.803
G1 F1800 X188.800 Y86.079 E596.03253
G0 F12000 X188.400 Y86.079
G1 F1800 X188.400 Y122.803 E597.25397
G0 F12000 X188.000 Y122.803
G1 F1800 X188.000 Y86.079 E598.47542
G0 F12000 X187.600 Y86.079
G1 F1800 X187.600 Y122.803 E599.69686
G0 F12000 X187.200 Y122.803
G1 F1800 X187.200 Y86.079 E600.91831
G0 F12000 X186.800 Y86.079
G1 F1800 X186.800 Y122.803 E602.13976
G0 F12000 X186.400 Y122.803
G1 F1800 X186.400 Y86.079 E603.36120
G0 F12000 X186.000 Y86.079
G1 F1800 X186.000 Y122.803 E604.58265
G0 F12000 X185.600 Y122.803
G1 F1800 X185.600 Y86.079 E605.80409
G0 F12000 X185.200 Y86.079
G1 F1800 X185.200 Y122.803 E607.02554
G0 F12000 X184.800 Y122.803
G1 F1800 X184.800 Y86.079 E608.24698
G0 F12000 X184.400 Y86.079
G1 F1800 X184.400 Y122.803 E609.46843
G0 F12000 X184.000 Y122.803
G1 F1800 X184.000 Y86.079 E610.68987
G0 F12000 X183.600 Y86.079
G1 F1800 X183.600 Y122.803 E611.91132
G0 F12000 X183.200 Y122.803
G1 F1800 X183.200 Y86.079 E613.13276
G0 F12000 X182.800 Y86.079
G1 F1800 X182.800 Y122.803 E614.35421
G0 F12000 X182.400 Y122.803
G1 F1800 X182.400 Y86.079 E615.57565
G0 F12000 X182.000 Y86.079
G1 F1800 X182.000 Y122.803 E616.79710
G0 F12000 X181.600 Y122.803
G1 F1800 X181.600 Y86.079 E618.01854
G0 F12000 X181.200 Y86.079
G1 F1800 X181.200 Y122.803 E619.23999
G0 F12000 X180.800 Y122.803
G1 F1800 X180.800 Y86.079 E620.46143
G0 F12000 X180.400 Y86.079
G1 F1800 X180.400 Y122.803 E621.68288
G0 F12000 X180.000 Y122.803
G1 F1800 X180.000 Y86.079 E622.90432
G1 F2100 E622.50432
G0 F12000 X194.800 Y86.079
G1 F2100 E622.90432
G1 F1800 X194.800 Y218.921 E627.32267
G0 F12000 X195.200 Y218.921
G1 F1800 X195.200 Y86.079 E631.74101
G0 F12000 X195.600 Y86.079
G1 F1800 X195.600 Y218.921 E636.15935
G0 F12000 X196.000 Y218.921
G1 F1800 X196.000 Y86.079 E640.57770
G0 F12000 X196.400 Y86.079
G1 F1800 X196.400 Y218.921 E644.99604
G0 F12000 X196.800 Y218.921
G1 F1800 X196.800 Y86.079 E649.41438
G0 F12000 X197.200 Y86.079
G1 F1800 X197.200 Y218.921 E653.83272
G0 F12000 X197.600 Y218.921
G1 F1800 X197.600 Y86.079 E658.25107
G0 F12000 X198.000 Y86.079
G1 F1800 X198.000 Y218.921 E662.66941
G0 F12000 X198.400 Y218.921
G1 F1800 X198.400 Y86.079 E667.08775
G0 F12000 X198.800 Y86.079
G1 F1800 X198.800 Y218.921 E671.50610
G0 F12000 X199.200 Y218.921
G1 F1800 X199.200 Y86.079 E675.92444
G0 F12000 X199.600 Y86.079
G1 F1800 X199.600 Y218.921 E680.34278
G0 F12000 X200.000 Y218.921
G1 F1800 X200.000 Y86.079 E684.76112
G0 F12000 X200.400 Y86.079
G1 F1800 X200.400 Y218.921 E689.17947
G0 F12000 X200.800 Y218.921
G1 F1800 X200.800 Y86.079 E693.59781
G0 F12000 X201.200 Y86.079
G1 F1800 X201.200 Y218.921 E698.01615
G0 F12000 X201.600 Y218.921
G1 F1800 X201.600 Y86.079 E702.43450
G0 F12000 X202.000 Y86.079
G1 F1800 X202.000 Y218.921 E706.85284
G0 F12000 X202.400 Y218.921
G1 F1800 X202.400 Y86.079 E711.27118
G0 F12000 X202.800 Y86.079
G1 F1800 X202.800 Y218.921 E715.68952
G0 F12000 X203.200 Y218.921
G1 F1800 X203.200 Y86.079 E720.10787
G0 F12000 X203.600 Y86.079
G1 F1800 X203.600 Y218.921 E724.52621
G0 F12000 X204.000 Y218.921
G1 F1800 X204.000 Y86.079 E728.94455
G0 F12000 X204.400 Y86.079
G1 F1800 X204.400 Y218.921 E733.36290
G0 F12000 X204.800 Y218.921
G1 F1800 X204.800 Y86.079 E737.78124
G0 F12000 X205.200 Y86.079
G1 F1800 X205.200 Y218.921 E742.19958
G0 F12000 X205.600 Y218.921
G1 F1800 X205.600 Y86.079 E746.61792
G0 F12000 X206.000 Y86.079
G1 F1800 X206.000 Y218.921 E751.03627
G1 F2100 E750.63627
G0 F12000 X179.600 Y122.803
G1 F2100 E751.03627
G1 F1800 X179.600 Y86.079 E752.25771
G0 F12000 X179.200 Y86.079
G1 F1800 X179.200 Y122.803 E753.47916
G0 F12000 X178.800 Y122.803
G1 F1800 X178.800 Y86.079 E754.70060
G0 F12000 X178.400 Y86.079
G1 F1800 X178.400 Y122.803 E755.92205
G0 F12000 X178.000 Y122.803
G1 F1800 X178.000 Y86.079 E757.14349
G0 F12000 X177.600 Y86.079
G1 F1800 X177.600 Y122.803 E758.36494
G0 F12000 X177.200 Y122.803
G1 F1800 X177.200 Y86.079 E759.58638
G0 F12000 X176.800 Y86.079
G1 F1800 X176.800 Y122.803 E760.80783
G0 F12000 X176.400 Y122.803
G1 F1800 X176.400 Y86.079 E762.02927
G0 F12000 X176.000 Y86.079
G1 F1800 X176.000 Y122.803 E763.25072
G0 F12000 X175.600 Y122.803
G1 F1800 X175.600 Y86.079 E764.47216
G0 F12000 X175.200 Y86.079
G1 F1800 X175.200 Y122.803 E765.69361
G0 F12000 X174.800 Y122.803
G1 F1800 X174.800 Y86.079 E766.91505
G0 F12000 X174.400 Y86.079
G1 F1800 X174.400 Y122.803 E768.13650
G0 F12000 X174.000 Y122.803
G1 F1800 X174.000 Y86.079 E769.35794
G0 F12000 X173.600 Y86.079
G1 F1800 X173.600 Y122.803 E770.57939
G0 F12000 X173.200 Y122.803
G1 F1800 X173.200 Y86.079 E771.80084
G0 F12000 X172.800 Y86.079
G1 F1800 X172.800 Y122.803 E773.02228
G0 F12000 X172.400 Y122.803
G1 F1800 X172.400 Y86.079 E774.24373
G0 F12000 X172.000 Y86.079
G1 F1800 X172.000 Y122.803 E775.46517
G0 F12000 X171.600 Y122.803
G1 F1800 X171.600 Y86.079 E776.68662
G0 F12000 X171.200 Y86.079
G1 F1800 X171.200 Y122.803 E777.90806
G0 F12000 X170.800 Y122.803
G1 F1800 X170.800 Y86.079 E779.12951
G0 F12000 X170.400 Y86.079
G1 F1800 X170.400 Y122.803 E780.35095
G0 F12000 X170.000 Y122.803
G1 F1800 X170.000 Y86.079 E781.57240
G0 F12000 X169.600 Y86.079
G1 F1800 X169.600 Y122.803 E782.79384
G0 F12000 X169.200 Y122.803
G1 F1800 X169.200 Y86.079 E784.01529
G0 F12000 X168.800 Y86.079
G1 F1800 X168.800 Y122.803 E785.23673
G0 F12000 X168.400 Y122.803
G1 F1800 X168.400 Y86.079 E786.45818
G0 F12000 X168.000 Y86.079
G1 F1800 X168.000 Y122.803 E787.67962
G0 F12000 X167.600 Y122.803
G1 F1800 X167.600 Y86.079 E788.90107
G0 F12000 X167.200 Y86.079
G1 F1800 X167.200 Y122.803 E790.12251
G0 F12000 X166.800 Y122.803
G1 F1800 X166.800 Y86.079 E791.34396
G0 F12000 X166.400 Y86.079
G1 F1800 X166.400 Y122.803 E792.56540
G0 F12000 X166.000 Y122.803
G1 F1800 X166.000 Y86.079 E793.78685
G0 F12000 X165.600 Y86.079
G1 F1800 X165.600 Y122.803 E795.00829
G0 F12000 X165.200 Y122.803
G1 F1800 X165.200 Y86.079 E796.22974
G0 F12000 X164.800 Y86.079
G1 F1800 X164.800 Y122.803 E797.45118
G0 F12000 X164.400 Y122.803
G1 F1800 X164.400 Y86.079 E798.67263
G0 F12000 X164.000 Y86.079
G1 F1800 X164.000 Y122.803 E799.89407
G0 F12000 X163.600 Y122.803
G1 F1800 X163.600 Y86.079 E801.11552
G0 F12000 X163.200 Y86.079
G1 F1800 X163.200 Y122.803 E802.33697
G0 F12000 X162.800 Y122.803
G1 F1800 X162.800 Y86.079 E803.55841
G0 F12000 X162.400 Y86.079
G1 F1800 X162.400 Y122.803 E804.77986
G0 F12000 X162.000 Y122.803
G1 F1800 X162.000 Y86.079 E806.00130
G0 F12000 X161.600 Y86.079
G1 F1800 X161.600 Y122.803 E807.22275
G0 F12000 X161.200 Y122.803
G1 F1800 X161.200 Y86.079 E808.44419
G0 F12000 X160.800 Y86.079
G1 F1800 X160.800 Y122.803 E809.66564
G0 F12000 X160.400 Y122.803
G1 F1800 X160.400 Y86.079 E810.88708
G0 F12000 X160.000 Y86.079
G1 F1800 X160.000 Y122.803 E812.10853
G0 F12000 X159.600 Y122.803
G1 F1800 X159.600 Y86.079 E813.32997
G0 F12000 X159.200 Y86.079
G1 F1800 X159.200 Y122.803 E814.55142
G0 F12000 X158.800 Y122.803
G1 F1800 X158.800 Y86.079 E815.77286
G0 F12000 X158.400 Y86.079
G1 F1800 X158.400 Y122.803 E816.99431
G0 F12000 X158.000 Y122.803
G1 F1800 X158.000 Y86.079 E818.21575
G0 F12000 X157.600 Y86.079
G1 F1800 X157.600 Y122.803 E819.43720
G0 F12000 X157.200 Y122.803
G1 F1800 X157.200 Y86.079 E820.65864
G0 F12000 X156.800 Y86.079
G1 F1800 X156.800 Y122.803 E821.88009
G0 F12000 X156.400 Y122.803
G1 F1800 X156.400 Y86.079 E823.10153
G0 F12000 X156.000 Y86.079
G1 F1800 X156.000 Y122.803 E824.32298
G0 F12000 X155.600 Y122.803
G1 F1800 X155.600 Y86.079 E825.54442
G0 F12000 X155.200 Y86.079
G1 F1800 X155.200 Y122.803 E826.76587
G0 F12000 X154.800 Y122.803
G1 F1800 X154.800 Y86.079 E827.98731
G0 F12000 X154.400 Y86.079
G1 F1800 X154.400 Y122.803 E829.20876
G0 F12000 X154.000 Y122.803
G1 F1800 X154.000 Y86.079 E830.43020
G0 F12000 X153.600 Y86.079
G1 F1800 X153.600 Y122.803 E831.65165
G0 F12000 X153.200 Y122.803
G1 F1800 X153.200 Y86.079 E832.87310
G0 F12000 X152.800 Y86.079
G1 F1800 X152.800 Y122.803 E834.09454
G0 F12000 X152.400 Y122.803
G1 F1800 X152.400 Y86.079 E835.31599
G0 F12000 X152.000 Y86.079
G1 F1800 X152.000 Y122.803 E836.53743
G0 F12000 X151.600 Y122.803
G1 F1800 X151.600 Y86.079 E837.75888
G0 F12000 X151.200 Y86.079
G1 F1800 X151.200 Y122.803 E838.98032
G0 F12000 X150.800 Y122.803
G1 F1800 X150.800 Y86.079 E840.20177
G0 F12000 X150.400 Y86.079
G1 F1800 X150.400 Y122.803 E841.42321
G0 F12000 X150.000 Y122.803
G1 F1800 X150.000 Y86.079 E842.64466
G0 F12000 X149.600 Y86.079
G1 F1800 X149.600 Y122.803 E843.86610
G0 F12000 X149.200 Y122.803
G1 F1800 X149.200 Y86.079 E845.08755
G0 F12000 X148.800 Y86.079
G1 F1800 X148.800 Y122.803 E846.30899
G0 F12000 X148.400 Y122.803
G1 F1800 X148.400 Y86.079 E847.53044
G0 F12000 X148.000 Y86.079
G1 F1800 X148.000 Y122.803 E848.75188
G0 F12000 X147.600 Y122.803
G1 F1800 X147.600 Y86.079 E849.97333
G0 F12000 X147.200 Y86.079
G1 F1800 X147.200 Y122.803 E851.19477
G0 F12000 X146.800 Y122.803
G1 F1800 X146.800 Y86.079 E852.41622
G0 F12000 X146.400 Y86.079
G1 F1800 X146.400 Y122.803 E853.63766
G0 F12000 X146.000 Y122.803
G1 F1800 X146.000 Y86.079 E854.85911
G0 F12000 X145.600 Y86.079
G1 F1800 X145.600 Y122.803 E856.08055
G0 F12000 X145.200 Y122.803
G1 F1800 X145.200 Y86.079 E857.30200
G0 F12000 X144.800 Y86.079
G1 F1800 X144.800 Y122.803 E858.52344
G0 F12000 X144.400 Y122.803
G1 F1800 X144.400 Y86.079 E859.74489
G0 F12000 X144.000 Y86.079
G1 F1800 X144.000 Y122.803 E860.96633
G0 F12000 X143.600 Y122.803
G1 F1800 X143.600 Y86.079 E862.18778
G0 F12000 X143.200 Y86.079
G1 F1800 X143.200 Y122.803 E863.40923
G0 F12000 X142.800 Y122.803
G1 F1800 X142.800 Y86.079 E864.63067
G0 F12000 X142.400 Y86.079
G1 F1800 X142.400 Y122.803 E865.85212
G0 F12000 X142.000 Y122.803
G1 F1800 X142.000 Y86.079 E867.07356
G0 F12000 X141.600 Y86.079
G1 F1800 X141.600 Y122.803 E868.29501
G0 F12000 X141.200 Y122.803
G1 F1800 X141.200 Y86.079 E869.51645
G0 F12000 X140.800 Y86.079
G1 F1800 X140.800 Y122.803 E870.73790
G0 F12000 X140.400 Y122.803
G1 F1800 X140.400 Y86.079 E871.95934
G0 F12000 X140.000 Y86.079
G1 F1800 X140.000 Y122.803 E873.18079
G0 F12000 X139.600 Y122.803
G1 F1800 X139.600 Y86.079 E874.40223
G0 F12000 X139.200 Y86.079
G1 F1800 X139.200 Y122.803 E875.62368
G0 F12000 X138.800 Y122.803
G1 F1800 X138.800 Y86.079 E876.84512
G0 F12000 X138.400 Y86.079
G1 F1800 X138.400 Y122.803 E878.06657
G0 F12000 X138.000 Y122.803
G1 F1800 X138.000 Y86.079 E879.28801
G0 F12000 X137.600 Y86.079
G1 F1800 X137.600 Y122.803 E880.50946
G0 F12000 X137.200 Y122.803
G1 F1800 X137.200 Y86.079 E881.73090
G0 F12000 X136.800 Y86.079
G1 F1800 X136.800 Y122.803 E882.95235
G0 F12000 X136.400 Y122.803
G1 F1800 X136.400 Y86.079 E884.17379
G0 F12000 X136.000 Y86.079
G1 F1800 X136.000 Y122.803 E885.39524
G0 F12000 X135.600 Y122.803
G1 F1800 X135.600 Y86.079 E886.61668
G0 F12000 X135.200 Y86.079
G1 F1800 X135.200 Y122.803 E887.83813
G0 F12000 X134.800 Y122.803
G1 F1800 X134.800 Y86.079 E889.05957
G0 F12000 X134.400 Y86.079
G1 F1800 X134.400 Y122.803 E890.28102
G0 F12000 X134.000 Y122.803
G1 F1800 X134.000 Y86.079 E891.50246
G0 F12000 X133.600 Y86.079
G1 F1800 X133.600 Y122.803 E892.72391
G0 F12000 X133.200 Y122.803
G1 F1800 X133.200 Y86.079 E893.94536
G0 F12000 X132.800 Y86.079
G1 F1800 X132.800 Y122.803 E895.16680
G0 F12000 X132.400 Y122.803
G1 F1800 X132.400 Y86.079 E896.38825
G0 F12000 X132.000 Y86.079
G1 F1800 X132.000 Y122.803 E897.60969
G0 F12000 X131.600 Y122.803
G1 F1800 X131.600 Y86.079 E898.83114
G0 F12000 X131.200 Y86.079
G1 F1800 X131.200 Y122.803 E900.05258
G0 F12000 X130.800 Y122.803
G1 F1800 X130.800 Y86.079 E901.27403
G0 F12000 X130.400 Y86.079
G1 F1800 X130.400 Y122.803 E902.49547
G0 F12000 X130.000 Y122.803
G1 F1800 X130.000 Y86.079 E903.71692
G0 F12000 X129.600 Y86.079
G1 F1800 X129.600 Y122.803 E904.93836
G0 F12000 X129.200 Y122.803
G1 F1800 X129.200 Y86.079 E906.15981
G0 F12000 X128.800 Y86.079
G1 F1800 X128.800 Y122.803 E907.38125
G0 F12000 X128.400 Y122.803
G1 F1800 X128.400 Y86.079 E908.60270
G0 F12000 X128.000 Y86.079
G1 F1800 X128.000 Y122.803 E909.82414
G0 F12000 X127.600 Y122.803
G1 F1800 X127.600 Y86.079 E911.04559
G0 F12000 X127.200 Y86.079
G1 F1800 X127.200 Y122.803 E912.26703
G0 F12000 X126.800 Y122.803
G1 F1800 X126.800 Y86.079 E913.48848
G0 F12000 X126.400 Y86.079
G1 F1800 X126.400 Y122.803 E914.70992
G0 F12000 X126.000 Y122.803
G1 F1800 X126.000 Y86.079 E915.93137
G0 F12000 X125.600 Y86.079
G1 F1800 X125.600 Y122.803 E917.15281
G0 F12000 X125.200 Y122.803
G1 F1800 X125.200 Y86.079 E918.37426
G0 F12000 X124.800 Y86.079
G1 F1800 X124.800 Y122.803 E919.59570
G0 F12000 X124.400 Y122.803
G1 F1800 X124.400 Y86.079 E920.81715
G0 F12000 X124.000 Y86.079
G1 F1800 X124.000 Y122.803 E922.03859
G0 F12000 X123.600 Y122.803
G1 F1800 X123.600 Y86.079 E923.26004
G0 F12000 X123.200 Y86.079
G1 F1800 X123.200 Y122.803 E924.48148
G0 F12000 X122.800 Y122.803
G1 F1800 X122.800 Y86.079 E925.70293
G0 F12000 X122.400 Y86.079
G1 F1800 X122.400 Y122.803 E926.92438
G0 F12000 X122.000 Y122.803
G1 F1800 X122.000 Y86.079 E928.14582
G0 F12000 X121.600 Y86.079
G1 F1800 X121.600 Y122.803 E929.36727
G0 F12000 X121.200 Y122.803
G1 F1800 X121.200 Y86.079 E930.58871
G0 F12000 X120.800 Y86.079
G1 F1800 X120.800 Y122.803 E931.81016
G0 F12000 X120.400 Y122.803
G1 F1800 X120.400 Y86.079 E933.03160
G0 F12000 X120.000 Y86.079
G1 F1800 X120.000 Y122.803 E934.25305
G0 F12000 X119.600 Y122.803
G1 F1800 X119.600 Y86.079 E935.47449
G0 F12000 X119.200 Y86.079
G1 F1800 X119.200 Y122.803 E936.69594
G0 F12000 X118.800 Y122.803
G1 F1800 X118.800 Y86.079 E937.91738
G0 F12000 X118.400 Y86.079
G1 F1800 X118.400 Y122.803 E939.13883
G0 F12000 X118.000 Y122.803
G1 F1800 X118.000 Y86.079 E940.36027
G0 F12000 X117.600 Y86.079
G1 F1800 X117.600 Y122.803 E941.58172
G0 F12000 X117.200 Y122.803
G1 F1800 X117.200 Y86.079 E942.80316
G0 F12000 X116.800 Y86.079
G1 F1800 X116.800 Y122.803 E944.02461
G0 F12000 X116.400 Y122.803
G1 F1800 X116.400 Y86.079 E945.24605
G0 F12000 X116.000 Y86.079
G1 F1800 X116.000 Y122.803 E946.46750
G0 F12000 X115.600 Y122.803
G1 F1800 X115.600 Y86.079 E947.68894
G0 F12000 X115.200 Y86.079
G1 F1800 X115.200 Y122.803 E948.91039
G0 F12000 X114.800 Y122.803
G1 F1800 X114.800 Y86.079 E950.13183
G0 F12000 X114.400 Y86.079
G1 F1800 X114.400 Y122.803 E951.35328
G0 F12000 X114.000 Y122.803
G1 F1800 X114.000 Y86.079 E952.57472
G0 F12000 X113.600 Y86.079
G1 F1800 X113.600 Y122.803 E953.79617
G0 F12000 X113.200 Y122.803
G1 F1800 X113.200 Y86.079 E955.01761
G0 F12000 X112.800 Y86.079
G1 F1800 X112.800 Y122.803 E956.23906
;LAYER:1
M106 S2
G0 F12000 X112.595 Y122.943 Z0.350
;TYPE:WALL-INNER
G1 F2220 X112.595 Y204.399 E958.27099
G1 X194.043 Y204.399 E960.30272
G1 X194.043 Y122.943 E962.33465
G1 X112.595 Y122.943 E964.36637
G1 F2100 E963.96637
G0 F12000 X98.639 Y85.939
G1 F2100 E964.36637
G1 F2220 X206.361 Y85.939 E967.05351
G1 X206.361 Y219.061 E970.37425
G1 X98.639 Y219.061 E973.06139
G1 X98.639 Y85.939 E976.38213
G0 F12000 X98.239 Y85.539
;TYPE:WALL-OUTER
G1 F2220 X206.761 Y85.539 E979.08922
G1 X206.761 Y219.461 E982.42992
G1 X98.239 Y219.461 E985.13701
G1 X98.239 Y85.539 E988.47771
G1 F2100 E988.07771
G0 F12000 X112.995 Y123.343
G1 F2100 E988.47771
G1 F2220 X112.995 Y203.999 E990.48968
G1 X193.643 Y203.999 E992.50145
G1 X193.643 Y123.343 E994.51343
G1 X112.995 Y123.343 E996.52520
G0 F12000 X112.454 Y123.200
;TYPE:SKIN
G1 F2220 X98.778 Y123.200 E996.86635
G0 F12000 X98.778 Y123.600
G1 F2220 X112.454 Y123.600 E997.20750
G0 F12000 X112.454 Y124.000
G1 F2220 X98.778 Y124.000 E997.54865
G0 F12000 X98.778 Y124.400
G1 F2220 X112.454 Y124.400 E997.88980
G0 F12000 X112.454 Y124.800
G1 F2220 X98.778 Y124.800 E998.23095
G0 F12000 X98.778 Y125.200
G1 F2220 X112.454 Y125.200 E998.57209
G0 F12000 X112.454 Y125.600
G1 F2220 X98.778 Y125.600 E998.91324
G0 F12000 X98.778 Y126.000
G1 F2220 X112.454 Y126.000 E999.25439
G0 F12000 X112.454 Y126.400
G1 F2220 X98.778 Y126.400 E999.59554
G0 F12000 X98.778 Y126.800
G1 F2220 X112.454 Y126.800 E999.93669
G0 F12000 X112.454 Y127.200
G1 F2220 X98.778 Y127.200 E1000.27784
G0 F12000 X98.778 Y127.600
G1 F2220 X112.454 Y127.600 E1000.61899
G0 F12000 X112.454 Y128.000
G1 F2220 X98.778 Y128.000 E1000.96014
G0 F12000 X98.778 Y128.400
G1 F2220 X112.454 Y128.400 E1001.30129
G0 F12000 X112.454 Y128.800
G1 F2220 X98.778 Y128.800 E1001.64244
G0 F12000 X98.778 Y129.200
G1 F2220 X112.454 Y129.200 E1001.98359
G0 F12000 X112.454 Y129.600
G1 F2220 X98.778 Y129.600 E1002.32474
G0 F12000 X98.778 Y130.000
G1 F2220 X112.454 Y130.000 E1002.66588
G0 F12000 X112.454 Y130.400
G1 F2220 X98.778 Y130.400 E1003.00703
G0 F12000 X98.778 Y130.800
G1 F2220 X112.454 Y130.800 E1003.34818
G0 F12000 X112.454 Y131.200
G1 F2220 X98.778 Y131.200 E1003.68933
G0 F12000 X98.778 Y131.600
G1 F2220 X112.454 Y131.600 E1004.03048
G0 F12000 X112.454 Y132.000
G1 F2220 X98.778 Y132.000 E1004.37163
G0 F12000 X98.778 Y132.400
G1 F2220 X112.454 Y132.400 E1004.71278
G0 F12000 X112.454 Y132.800
G1 F2220 X98.778 Y132.800 E1005.05393
G0 F12000 X98.778 Y133.200
G1 F2220 X112.454 Y133.200 E1005.39508
G0 F12000 X112.454 Y133.600
G1 F2220 X98.778 Y133.600 E1005.73623
G0 F12000 X98.778 Y134.000
G1 F2220 X112.454 Y134.000 E1006.07738
G0 F12000 X112.454 Y134.400
G1 F2220 X98.778 Y134.400 E1006.41853
G0 F12000 X98.778 Y134.800
G1 F2220 X112.454 Y134.800 E1006.75968
G0 F12000 X112.454 Y135.200
G1 F2220 X98.778 Y135.200 E1007.10082
G0 F12000 X98.778 Y135.600
G1 F2220 X112.454 Y135.600 E1007.44197
G0 F12000 X112.454 Y136.000
G1 F2220 X98.778 Y136.000 E1007.78312
G0 F12000 X98.778 Y136.400
G1 F2220 X112.454 Y136.400 E1008.12427
G0 F12000 X112.454 Y136.800
G1 F2220 X98.778 Y136.800 E1008.46542
G0 F12000 X98.778 Y137.200
G1 F2220 X112.454 Y137.200 E1008.80657
G0 F12000 X112.454 Y137.600
G1 F2220 X98.778 Y137.600 E1009.14772
G0 F12000 X98.778 Y138.000
G1 F2220 X112.454 Y138.000 E1009.48887
G0 F12000 X112.454 Y138.400
G1 F2220 X98.778 Y138.400 E1009.83002
G0 F12000 X98.778 Y138.800
G1 F2220 X112.454 Y138.800 E1010.17117
G0 F12000 X112.454 Y139.200
G1 F2220 X98.778 Y139.200 E1010.51232
G0 F12000 X98.778 Y139.600
G1 F2220 X112.454 Y139.600 E1010.85347
G0 F12000 X112.454 Y140.000
G1 F2220 X98.778 Y140.000 E1011.19462
G0 F12000 X98.778 Y140.400
G1 F2220 X112.454 Y140.400 E1011.53576
G0 F12000 X112.454 Y140.800
G1 F2220 X98.778 Y140.800 E1011.87691
G0 F12000 X98.778 Y141.200
G1 F2220 X112.454 Y141.200 E1012.21806
G0 F12000 X112.454 Y141.600
G1 F2220 X98.778 Y141.600 E1012.55921
G0 F12000 X98.778 Y142.000
G1 F2220 X112.454 Y142.000 E1012.90036
G0 F12000 X112.454 Y142.400
G1 F2220 X98.778 Y142.400 E1013.24151
G0 F12000 X98.778 Y142.800
G1 F2220 X112.454 Y142.800 E1013.58266
G0 F12000 X112.454 Y143.200
G1 F2220 X98.778 Y143.200 E1013.92381
G0 F12000 X98.778 Y143.600
G1 F2220 X112.454 Y143.600 E1014.26496
G0 F12000 X112.454 Y144.000
G1 F2220 X98.778 Y144.000 E1014.60611
G0 F12000 X98.778 Y144.400
G1 F2220 X112.454 Y144.400 E1014.94726
G0 F12000 X112.454 Y144.800
G1 F2220 X98.778 Y144.800 E1015.28841
G0 F12000 X98.778 Y145.200
G1 F2220 X112.454 Y145.200 E1015.62955
G0 F12000 X112.454 Y145.600
G1 F2220 X98.778 Y145.600 E1015.97070
G0 F12000 X98.778 Y146.000
G1 F2220 X112.454 Y146.000 E1016.31185
G0 F12000 X112.454 Y146.400
G1 F2220 X98.778 Y146.400 E1016.65300
G0 F12000 X98.778 Y146.800
G1 F2220 X112.454 Y146.800 E1016.99415
G0 F12000 X112.454 Y147.200
G1 F2220 X98.778 Y147.200 E1017.33530
G0 F12000 X98.778 Y147.600
G1 F2220 X112.454 Y147.600 E1017.67645
G0 F12000 X112.454 Y148.000
G1 F2220 X98.778 Y148.000 E1018.01760
G0 F12000 X98.778 Y148.400
G1 F2220 X112.454 Y148.400 E1018.35875
G0 F12000 X112.454 Y148.800
G1 F2220 X98.778 Y148.800 E1018.69990
G0 F12000 X98.778 Y149.200
G1 F2220 X112.454 Y149.200 E1019.04105
G0 F12000 X112.454 Y149.600
G1 F2220 X98.778 Y149.600 E1019.38220
G0 F12000 X98.778 Y150.000
G1 F2220 X112.454 Y150.000 E1019.72335
G0 F12000 X112.454 Y150.400
G1 F2220 X98.778 Y150.400 E1020.06449
G0 F12000 X98.778 Y150.800
G1 F2220 X112.454 Y150.800 E1020.40564
G0 F12000 X112.454 Y151.200
G1 F2220 X98.778 Y151.200 E1020.74679
G0 F12000 X98.778 Y151.600
G1 F2220 X112.454 Y151.600 E1021.08794
G0 F12000 X112.454 Y152.000
G1 F2220 X98.778 Y152.000 E1021.42909
G0 F12000 X98.778 Y152.400
G1 F2220 X112.454 Y152.400 E1021.77024
G0 F12000 X112.454 Y152.800
G1 F2220 X98.778 Y152.800 E1022.11139
G0 F12000 X98.778 Y153.200
G1 F2220 X112.454 Y153.200 E1022.45254
G0 F12000 X112.454 Y153.600
G1 F2220 X98.778 Y153.600 E1022.79369
G0 F12000 X98.778 Y154.000
G1 F2220 X112.454 Y154.000 E1023.13484
G0 F12000 X112.454 Y154.400
G1 F2220 X98.778 Y154.400 E1023.47599
G0 F12000 X98.778 Y154.800
G1 F2220 X112.454 Y154.800 E1023.81714
G0 F12000 X112.454 Y155.200
G1 F2220 X98.778 Y155.200 E1024.15828
G0 F12000 X98.778 Y155.600
G1 F2220 X112.454 Y155.600 E1024.49943
G0 F12000 X112.454 Y156.000
G1 F2220 X98.778 Y156.000 E1024.84058
G0 F12000 X98.778 Y156.400
G1 F2220 X112.454 Y156.400 E1025.18173
G0 F12000 X112.454 Y156.800
G1 F2220 X98.778 Y156.800 E1025.52288
G0 F12000 X98.778 Y157.200
G1 F2220 X112.454 Y157.200 E1025.86403
G0 F12000 X112.454 Y157.600
G1 F2220 X98.778 Y157.600 E1026.20518
G0 F12000 X98.778 Y158.000
G1 F2220 X112.454 Y158.000 E1026.54633
G0 F12000 X112.454 Y158.400
G1 F2220 X98.778 Y158.400 E1026.88748
G0 F12000 X98.778 Y158.800
G1 F2220 X112.454 Y158.800 E1027.22863
G0 F12000 X112.454 Y159.200
G1 F2220 X98.778 Y159.200 E1027.56978
G0 F12000 X98.778 Y159.600
G1 F2220 X112.454 Y159.600 E1027.91093
G0 F12000 X112.454 Y160.000
G1 F2220 X98.778 Y160.000 E1028.25208
G0 F12000 X98.778 Y160.400
G1 F2220 X112.454 Y160.400 E1028.59322
G0 F12000 X112.454 Y160.800
G1 F2220 X98.778 Y160.800 E1028.93437
G0 F12000 X98.778 Y161.200
G1 F2220 X112.454 Y161.200 E1029.27552
G0 F12000 X112.454 Y161.600
G1 F2220 X98.778 Y161.600 E1029.61667
G0 F12000 X98.778 Y162.000
G1 F2220 X112.454 Y162.000 E1029.95782
G0 F12000 X112.454 Y162.400
G1 F2220 X98.778 Y162.400 E1030.29897
G0 F12000 X98.778 Y162.800
G1 F2220 X112.454 Y162.800 E1030.64012
G0 F12000 X112.454 Y163.200
G1 F2220 X98.778 Y163.200 E1030.98127
G0 F12000 X98.778 Y163.600
G1 F2220 X112.454 Y163.600 E1031.32242
G0 F12000 X112.454 Y164.000
G1 F2220 X98.778 Y164.000 E1031.66357
G0 F12000 X98.778 Y164.400
G1 F2220 X112.454 Y164.400 E1032.00472
G0 F12000 X112.454 Y164.800
G1 F2220 X98.778 Y164.800 E1032.34587
G0 F12000 X98.778 Y165.200
G1 F2220 X112.454 Y165.200 E1032.68701
G0 F12000 X112.454 Y165.600
G1 F2220 X98.778 Y165.600 E1033.02816
G0 F12000 X98.778 Y166.000
G1 F2220 X112.454 Y166.000 E1033.36931
G0 F12000 X112.454 Y166.400
G1 F2220 X98.778 Y166.400 E1033.71046
G0 F12000 X98.778 Y166.800
G1 F2220 X112.454 Y166.800 E1034.05161
G0 F12000 X112.454 Y167.200
G1 F2220 X98.778 Y167.200 E1034.39276
G0 F12000 X98.778 Y167.600
G1 F2220 X112.454 Y167.600 E1034.73391
G0 F12000 X112.454 Y168.000
G1 F2220 X98.778 Y168.000 E1035.07506
G0 F12000 X98.778 Y168.400
G1 F2220 X112.454 Y168.400 E1035.41621
G0 F12000 X112.454 Y168.800
G1 F2220 X98.778 Y168.800 E1035.75736
G0 F12000 X98.778 Y169.200
G1 F2220 X112.454 Y169.200 E1036.09851
G0 F12000 X112.454 Y169.600
G1 F2220 X98.778 Y169.600 E1036.43966
G0 F12000 X98.778 Y170.000
G1 F2220 X112.454 Y170.000 E1036.78081
G0 F12000 X112.454 Y170.400
G1 F2220 X98.778 Y170.400 E1037.12195
G0 F12000 X98.778 Y170.800
G1 F2220 X112.454 Y170.800 E1037.46310
G0 F12000 X112.454 Y171.200
G1 F2220 X98.778 Y171.200 E1037.80425
G0 F12000 X98.778 Y171.600
G1 F2220 X112.454 Y171.600 E1038.14540
G0 F12000 X112.454 Y172.000
G1 F2220 X98.778 Y172.000 E1038.48655
G0 F12000 X98.778 Y172.400
G1 F2220 X112.454 Y172.400 E1038.82770
G0 F12000 X112.454 Y172.800
G1 F2220 X98.778 Y172.800 E1039.16885
G0 F12000 X98.778 Y173.200
G1 F2220 X112.454 Y173.200 E1039.51000
G0 F12000 X112.454 Y173.600
G1 F2220 X98.778 Y173.600 E1039.85115
G0 F12000 X98.778 Y174.000
G1 F2220 X112.454 Y174.000 E1040.19230
G0 F12000 X112.454 Y174.400
G1 F2220 X98.778 Y174.400 E1040.53345
G0 F12000 X98.778 Y174.800
G1 F2220 X112.454 Y174.800 E1040.87460
G0 F12000 X112.454 Y175.200
G1 F2220 X98.778 Y175.200 E1041.21575
G0 F12000 X98.778 Y175.600
G1 F2220 X112.454 Y175.600 E1041.55689
G0 F12000 X112.454 Y176.000
G1 F2220 X98.778 Y176.000 E1041.89804
G0 F12000 X98.778 Y176.400
G1 F2220 X112.454 Y176.400 E1042.23919
G0 F12000 X112.454 Y176.800
G1 F2220 X98.778 Y176.800 E1042.58034
G0 F12000 X98.778 Y177.200
G1 F2220 X112.454 Y177.200 E1042.92149
G0 F12000 X112.454 Y177.600
G1 F2220 X98.778 Y177.600 E1043.26264
G0 F12000 X98.778 Y178.000
G1 F2220 X112.454 Y178.000 E1043.60379
G0 F12000 X112.454 Y178.400
G1 F2220 X98.778 Y178.400 E1043.94494
G0 F12000 X98.778 Y178.800
G1 F2220 X112.454 Y178.800 E1044.28609
G0 F12000 X112.454 Y179.200
G1 F2220 X98.778 Y179.200 E1044.62724
G0 F12000 X98.778 Y179.600
G1 F2220 X112.454 Y179.600 E1044.96839
G0 F12000 X112.454 Y180.000
G1 F2220 X98.778 Y180.000 E1045.30954
G0 F12000 X98.778 Y180.400
G1 F2220 X112.454 Y180.400 E1045.65068
G0 F12000 X112.454 Y180.800
G1 F2220 X98.778 Y180.800 E1045.99183
G0 F12000 X98.778 Y181.200
G1 F2220 X112.454 Y181.200 E1046.33298
G0 F12000 X112.454 Y181.600
G1 F2220 X98.778 Y181.600 E1046.67413
G0 F12000 X98.778 Y182.000
G1 F2220 X112.454 Y182.000 E1047.01528
G0 F12000 X112.454 Y182.400
G1 F2220 X98.778 Y182.400 E1047.35643
G0 F12000 X98.778 Y182.800
G1 F2220 X112.454 Y182.800 E1047.69758
G0 F12000 X112.454 Y183.200
G1 F2220 X98.778 Y183.200 E1048.03873
G0 F12000 X98.778 Y183.600
G1 F2220 X112.454 Y183.600 E1048.37988
G0 F12000 X112.454 Y184.000
G1 F2220 X98.778 Y184.000 E1048.72103
G0 F12000 X98.778 Y184.400
G1 F2220 X112.454 Y184.400 E1049.06218
G0 F12000 X112.454 Y184.800
G1 F2220 X98.778 Y184.800 E1049.40333
G0 F12000 X98.778 Y185.200
G1 F2220 X112.454 Y185.200 E1049.74448
G0 F12000 X112.454 Y185.600
G1 F2220 X98.778 Y185.600 E1050.08562
G0 F12000 X98.778 Y186.000
G1 F2220 X112.454 Y186.000 E1050.42677
G0 F12000 X112.454 Y186.400
G1 F2220 X98.778 Y186.400 E1050.76792
G0 F12000 X98.778 Y186.800
G1 F2220 X112.454 Y186.800 E1051.10907
G0 F12000 X112.454 Y187.200
G1 F2220 X98.778 Y187.200 E1051.45022
G0 F12000 X98.778 Y187.600
G1 F2220 X112.454 Y187.600 E1051.79137
G0 F12000 X112.454 Y188.000
G1 F2220 X98.778 Y188.000 E1052.13252
G0 F12000 X98.778 Y188.400
G1 F2220 X112.454 Y188.400 E1052.47367
G0 F12000 X112.454 Y188.800
G1 F2220 X98.778 Y188.800 E1052.81482
G0 F12000 X98.778 Y189.200
G1 F2220 X112.454 Y189.200 E1053.15597
G0 F12000 X112.454 Y189.600
G1 F2220 X98.778 Y189.600 E1053.49712
G0 F12000 X98.778 Y190.000
G1 F2220 X112.454 Y190.000 E1053.83827
G0 F12000 X112.454 Y190.400
G1 F2220 X98.778 Y190.400 E1054.17941
G0 F12000 X98.778 Y190.800
G1 F2220 X112.454 Y190.800 E1054.52056
G0 F12000 X112.454 Y191.200
G1 F2220 X98.778 Y191.200 E1054.86171
G0 F12000 X98.778 Y191.600
G1 F2220 X112.454 Y191.600 E1055.20286
G0 F12000 X112.454 Y192.000
G1 F2220 X98.778 Y192.000 E1055.54401
G0 F12000 X98.778 Y192.400
G1 F2220 X112.454 Y192.400 E1055.88516
G0 F12000 X112.454 Y192.800
G1 F2220 X98.778 Y192.800 E1056.22631
G0 F12000 X98.778 Y193.200
G1 F2220 X112.454 Y193.200 E1056.56746
G0 F12000 X112.454 Y193.600
G1 F2220 X98.778 Y193.600 E1056.90861
G0 F12000 X98.778 Y194.000
G1 F2220 X112.454 Y194.000 E1057.24976
G0 F12000 X112.454 Y194.400
G1 F2220 X98.778 Y194.400 E1057.59091
G0 F12000 X98.778 Y194.800
G1 F2220 X112.454 Y194.800 E1057.93206
G0 F12000 X112.454 Y195.200
G1 F2220 X98.778 Y195.200 E1058.27321
G0 F12000 X98.778 Y195.600
G1 F2220 X112.454 Y195.600 E1058.61435
G0 F12000 X112.454 Y196.000
G1 F2220 X98.778 Y196.000 E1058.95550
G0 F12000 X98.778 Y196.400
G1 F2220 X112.454 Y196.400 E1059.29665
G0 F12000 X112.454 Y196.800
G1 F2220 X98.778 Y196.800 E1059.63780
G0 F12000 X98.778 Y197.200
G1 F2220 X112.454 Y197.200 E1059.97895
G0 F12000 X112.454 Y197.600
G1 F2220 X98.778 Y197.600 E1060.32010
G0 F12000 X98.778 Y198.000
G1 F2220 X112.454 Y198.000 E1060.66125
G0 F12000 X112.454 Y198.400
G1 F2220 X98.778 Y198.400 E1061.00240
G0 F12000 X98.778 Y198.800
G1 F2220 X112.454 Y198.800 E1061.34355
G0 F12000 X112.454 Y199.200
G1 F2220 X98.778 Y199.200 E1061.68470
G0 F12000 X98.778 Y199.600
G1 F2220 X112.454 Y199.600 E1062.02585
G0 F12000 X112.454 Y200.000
G1 F2220 X98.778 Y200.000 E1062.36700
G0 F12000 X98.778 Y200.400
G1 F2220 X112.454 Y200.400 E1062.70814
G0 F12000 X112.454 Y200.800
G1 F2220 X98.778 Y200.800 E1063.04929
G0 F12000 X98.778 Y201.200
G1 F2220 X112.454 Y201.200 E1063.39044
G0 F12000 X112.454 Y201.600
G1 F2220 X98.778 Y201.600 E1063.73159
G0 F12000 X98.778 Y202.000
G1 F2220 X112.454 Y202.000 E1064.07274
G0 F12000 X112.454 Y202.400
G1 F2220 X98.778 Y202.400 E1064.41389
G0 F12000 X98.778 Y202.800
G1 F2220 X112.454 Y202.800 E1064.75504
G0 F12000 X112.454 Y203.200
G1 F2220 X98.778 Y203.200 E1065.09619
G0 F12000 X98.778 Y203.600
G1 F2220 X112.454 Y203.600 E1065.43734
G0 F12000 X112.454 Y204.000
G1 F2220 X98.778 Y204.000 E1065.77849
G0 F12000 X98.778 Y204.400
G1 F2220 X112.454 Y204.400 E1066.11964
G1 F2100 E1065.71964
G0 F12000 X98.778 Y204.800
G1 F2100 E1066.11964
G1 F2220 X206.220 Y204.800 E1068.79979
G0 F12000 X206.220 Y205.200
G1 F2220 X98.778 Y205.200 E1071.47994
G0 F12000 X98.778 Y205.600
G1 F2220 X206.220 Y205.600 E1074.16009
G0 F12000 X206.220 Y206.000
G1 F2220 X98.778 Y206.000 E1076.84024
G0 F12000 X98.778 Y206.400
G1 F2220 X206.220 Y206.400 E1079.52039
G0 F12000 X206.220 Y206.800
G1 F2220 X98.778 Y206.800 E1082.20055
G0 F12000 X98.778 Y207.200
G1 F2220 X206.220 Y207.200 E1084.88070
G0 F12000 X206.220 Y207.600
G1 F2220 X98.778 Y207.600 E1087.56085
G0 F12000 X98.778 Y208.000
G1 F2220 X206.220 Y208.000 E1090.24100
G0 F12000 X206.220 Y208.400
G1 F2220 X98.778 Y208.400 E1092.92115
G0 F12000 X98.778 Y208.800
G1 F2220 X206.220 Y208.800 E1095.60130
G0 F12000 X206.220 Y209.200
G1 F2220 X98.778 Y209.200 E1098.28146
G0 F12000 X98.778 Y209.600
G1 F2220 X206.220 Y209.600 E1100.96161
G0 F12000 X206.220 Y210.000
G1 F2220 X98.778 Y210.000 E1103.64176
G0 F12000 X98.778 Y210.400
G1 F2220 X206.220 Y210.400 E1106.32191
G0 F12000 X206.220 Y210.800
G1 F2220 X98.778 Y210.800 E1109.00206
G0 F12000 X98.778 Y211.200
G1 F2220 X206.220 Y211.200 E1111.68221
G0 F12000 X206.220 Y211.600
G1 F2220 X98.778 Y211.600 E1114.36237
G0 F12000 X98.778 Y212.000
G1 F2220 X206.220 Y212.000 E1117.04252
G0 F12000 X206.220 Y212.400
G1 F2220 X98.778 Y212.400 E1119.72267
G0 F12000 X98.778 Y212.800
G1 F2220 X206.220 Y212.800 E1122.40282
G0 F12000 X206.220 Y213.200
G1 F2220 X98.778 Y213.200 E1125.08297
G0 F12000 X98.778 Y213.600
G1 F2220 X206.220 Y213.600 E1127.76312
G0 F12000 X206.220 Y214.000
G1 F2220 X98.778 Y214.000 E1130.44327
G0 F12000 X98.778 Y214.400
G1 F2220 X206.220 Y214.400 E1133.12343
G0 F12000 X206.220 Y214.800
G1 F2220 X98.778 Y214.800 E1135.80358
G0 F12000 X98.778 Y215.200
G1 F2220 X206.220 Y215.200 E1138.48373
G0 F12000 X206.220 Y215.600
G1 F2220 X98.778 Y215.600 E1141.16388
G0 F12000 X98.778 Y216.000
G1 F2220 X206.220 Y216.000 E1143.84403
G0 F12000 X206.220 Y216.400
G1 F2220 X98.778 Y216.400 E1146.52418
G0 F12000 X98.778 Y216.800
G1 F2220 X206.220 Y216.800 E1149.20434
G0 F12000 X206.220 Y217.200
G1 F2220 X98.778 Y217.200 E1151.88449
G0 F12000 X98.778 Y217.600
G1 F2220 X206.220 Y217.600 E1154.56464
G0 F12000 X206.220 Y218.000
G1 F2220 X98.778 Y218.000 E1157.24479
G0 F12000 X98.778 Y218.400
G1 F2220 X206.220 Y218.400 E1159.92494
G0 F12000 X206.220 Y218.800
G1 F2220 X98.778 Y218.800 E1162.60509
G1 F2100 E1162.20509
G0 F12000 X98.778 Y122.800
G1 F2100 E1162.60509
G1 F2220 X206.220 Y122.800 E1165.28525
G0 F12000 X206.220 Y123.200
G1 F2220 X194.182 Y123.200 E1165.58553
G0 F12000 X194.182 Y123.600
G1 F2220 X206.220 Y123.600 E1165.88582
G0 F12000 X206.220 Y124.000
G1 F2220 X194.182 Y124.000 E1166.18611
G0 F12000 X194.182 Y124.400
G1 F2220 X206.220 Y124.400 E1166.48640
G0 F12000 X206.220 Y124.800
G1 F2220 X194.182 Y124.800 E1166.78669
G0 F12000 X194.182 Y125.200
G1 F2220 X206.220 Y125.200 E1167.08698
G0 F12000 X206.220 Y125.600
G1 F2220 X194.182 Y125.600 E1167.38727
G0 F12000 X194.182 Y126.000
G1 F2220 X206.220 Y126.000 E1167.68756
G0 F12000 X206.220 Y126.400
G1 F2220 X194.182 Y126.400 E1167.98785
G0 F12000 X194.182 Y126.800
G1 F2220 X206.220 Y126.800 E1168.28814
G0 F12000 X206.220 Y127.200
G1 F2220 X194.182 Y127.200 E1168.58843
G0 F12000 X194.182 Y127.600
G1 F2220 X206.220 Y127.600 E1168.88871
G0 F12000 X206.220 Y128.000
G1 F2220 X194.182 Y128.000 E1169.18900
G0 F12000 X194.182 Y128.400
G1 F2220 X206.220 Y128.400 E1169.48929
G0 F12000 X206.220 Y128.800
G1 F2220 X194.182 Y128.800 E1169.78958
G0 F12000 X194.182 Y129.200
G1 F2220 X206.220 Y129.200 E1170.08987
G0 F12000 X206.220 Y129.600
G1 F2220 X194.182 Y129.600 E1170.39016
G0 F12000 X194.182 Y130.000
G1 F2220 X206.220 Y130.000 E1170.69045
G0 F12000 X206.220 Y130.400
G1 F2220 X194.182 Y130.400 E1170.99074
G0 F12000 X194.182 Y130.800
G1 F2220 X206.220 Y130.800 E1171.29103
G0 F12000 X206.220 Y131.200
G1 F2220 X194.182 Y131.200 E1171.59132
G0 F12000 X194.182 Y131.600
G1 F2220 X206.220 Y131.600 E1171.89161
G0 F12000 X206.220 Y132.000
G1 F2220 X194.182 Y132.000 E1172.19190
G0 F12000 X194.182 Y132.400
G1 F2220 X206.220 Y132.400 E1172.49218
G0 F12000 X206.220 Y132.800
G1 F2220 X194.182 Y132.800 E1172.79247
G0 F12000 X194.182 Y133.200
G1 F2220 X206.220 Y133.200 E1173.09276
G0 F12000 X206.220 Y133.600
G1 F2220 X194.182 Y133.600 E1173.39305
G0 F12000 X194.182 Y134.000
G1 F2220 X206.220 Y134.000 E1173.69334
G0 F12000 X206.220 Y134.400
G1 F2220 X194.182 Y134.400 E1173.99363
G0 F12000 X194.182 Y134.800
G1 F2220 X206.220 Y134.800 E1174.29392
G0 F12000 X206.220 Y135.200
G1 F2220 X194.182 Y135.200 E1174.59421
G0 F12000 X194.182 Y135.600
G1 F2220 X206.220 Y135.600 E1174.89450
G0 F12000 X206.220 Y136.000
G1 F2220 X194.182 Y136.000 E1175.19479
G0 F12000 X194.182 Y136.400
G1 F2220 X206.220 Y136.400 E1175.49508
G0 F12000 X206.220 Y136.800
G1 F2220 X194.182 Y136.800 E1175.79536
G0 F12000 X194.182 Y137.200
G1 F2220 X206.220 Y137.200 E1176.09565
G0 F12000 X206.220 Y137.600
G1 F2220 X194.182 Y137.600 E1176.39594
G0 F12000 X194.182 Y138.000
G1 F2220 X206.220 Y138.000 E1176.69623
G0 F12000 X206.220 Y138.400
G1 F2220 X194.182 Y138.400 E1176.99652
G0 F12000 X194.182 Y138.800
G1 F2220 X206.220 Y138.800 E1177.29681
G0 F12000 X206.220 Y139.200
G1 F2220 X194.182 Y139.200 E1177.59710
G0 F12000 X194.182 Y139.600
G1 F2220 X206.220 Y139.600 E1177.89739
G1 F2100 E1177.49739
G0 F12000 X206.220 Y122.400
G1 F2100 E1177.89739
G1 F2220 X98.778 Y122.400 E1180.57754
G0 F12000 X98.778 Y122.000
G1 F2220 X206.220 Y122.000 E1183.25769
G0 F12000 X206.220 Y121.600
G1 F2220 X98.778 Y121.600 E1185.93784
G0 F12000 X98.778 Y121.200
G1 F2220 X206.220 Y121.200 E1188.61799
G0 F12000 X206.220 Y120.800
G1 F2220 X98.778 Y120.800 E1191.29815
G0 F12000 X98.778 Y120.400
G1 F2220 X206.220 Y120.400 E1193.97830
G0 F12000 X206.220 Y120.000
G1 F2220 X98.778 Y120.000 E1196.65845
G0 F12000 X98.778 Y119.600
G1 F2220 X206.220 Y119.600 E1199.33860
G0 F12000 X206.220 Y119.200
G1 F2220 X98.778 Y119.200 E1202.01875
G0 F12000 X98.778 Y118.800
G1 F2220 X206.220 Y118.800 E1204.69890
G0 F12000 X206.220 Y118.400
G1 F2220 X98.778 Y118.400 E1207.37906
G0 F12000 X98.778 Y118.000
G1 F2220 X206.220 Y118.000 E1210.05921
G0 F12000 X206.220 Y117.600
G1 F2220 X98.778 Y117.600 E1212.73936
G0 F12000 X98.778 Y117.200
G1 F2220 X206.220 Y117.200 E1215.41951
G0 F12000 X206.220 Y116.800
G1 F2220 X98.778 Y116.800 E1218.09966
G0 F12000 X98.778 Y116.400
G1 F2220 X206.220 Y116.400 E1220.77981
G0 F12000 X206.220 Y116.000
G1 F2220 X98.778 Y116.000 E1223.45997
G0 F12000 X98.778 Y115.600
G1 F2220 X206.220 Y115.600 E1226.14012
G0 F12000 X206.220 Y115.200
G1 F2220 X98.778 Y115.200 E1228.82027
G0 F12000 X98.778 Y114.800
G1 F2220 X206.220 Y114.800 E1231.50042
G0 F12000 X206.220 Y114.400
G1 F2220 X98.778 Y114.400 E1234.18057
G0 F12000 X98.778 Y114.000
G1 F2220 X206.220 Y114.000 E1236.86072
G0 F12000 X206.220 Y113.600
G1 F2220 X98.778 Y113.600 E1239.54087
G0 F12000 X98.778 Y113.200
G1 F2220 X206.220 Y113.200 E1242.22103
G0 F12000 X206.220 Y112.800
G1 F2220 X98.778 Y112.800 E1244.90118
G0 F12000 X98.778 Y112.400
G1 F2220 X206.220 Y112.400 E1247.58133
G0 F12000 X206.220 Y112.000
G1 F2220 X98.778 Y112.000 E1250.26148
G0 F12000 X98.778 Y111.600
G1 F2220 X206.220 Y111.600 E1252.94163
G0 F12000 X206.220 Y111.200
G1 F2220 X98.778 Y111.200 E1255.62178
G0 F12000 X98.778 Y110.800
G1 F2220 X206.220 Y110.800 E1258.30194
G0 F12000 X206.220 Y110.400
G1 F2220 X98.778 Y110.400 E1260.98209
G0 F12000 X98.778 Y110.000
G1 F2220 X206.220 Y110.000 E1263.66224
G0 F12000 X206.220 Y109.600
G1 F2220 X98.778 Y109.600 E1266.34239
G0 F12000 X98.778 Y109.200
G1 F2220 X206.220 Y109.200 E1269.02254
G0 F12000 X206.220 Y108.800
G1 F2220 X98.778 Y108.800 E1271.70269
G0 F12000 X98.778 Y108.400
G1 F2220 X206.220 Y108.400 E1274.38285
G0 F12000 X206.220 Y108.000
G1 F2220 X98.778 Y108.000 E1277.06300
G0 F12000 X98.778 Y107.600
G1 F2220 X206.220 Y107.600 E1279.74315
G0 F12000 X206.220 Y107.200
G1 F2220 X98.778 Y107.200 E1282.42330
G0 F12000 X98.778 Y106.800
G1 F2220 X206.220 Y106.800 E1285.10345
G0 F12000 X206.220 Y106.400
G1 F2220 X98.778 Y106.400 E1287.78360
G0 F12000 X98.778 Y106.000
G1 F2220 X206.220 Y106.000 E1290.46375
G0 F12000 X206.220 Y105.600
G1 F2220 X98.778 Y105.600 E1293.14391
G0 F12000 X98.778 Y105.200
G1 F2220 X206.220 Y105.200 E1295.82406
G0 F12000 X206.220 Y104.800
G1 F2220 X98.778 Y104.800 E1298.50421
G0 F12000 X98.778 Y104.400
G1 F2220 X206.220 Y104.400 E1301.18436
G0 F12000 X206.220 Y104.000
G1 F2220 X98.778 Y104.000 E1303.86451
G0 F12000 X98.778 Y103.600
G1 F2220 X206.220 Y103.600 E1306.54466
G0 F12000 X206.220 Y103.200
G1 F2220 X98.778 Y103.200 E1309.22482
G0 F12000 X98.778 Y102.800
G1 F2220 X206.220 Y102.800 E1311.90497
G0 F12000 X206.220 Y102.400
G1 F2220 X98.778 Y102.400 E1314.58512
G0 F12000 X98.778 Y102.000
G1 F2220 X206.220 Y102.000 E1317.26527
G0 F12000 X206.220 Y101.600
G1 F2220 X98.778 Y101.600 E1319.94542
G0 F12000 X98.778 Y101.200
G1 F2220 X206.220 Y101.200 E1322.62557
G0 F12000 X206.220 Y100.800
G1 F2220 X98.778 Y100.800 E1325.30573
G0 F12000 X98.778 Y100.400
G1 F2220 X206.220 Y100.400 E1327.98588
G0 F12000 X206.220 Y100.000
G1 F2220 X98.778 Y100.000 E1330.66603
G0 F12000 X98.778 Y99.600
G1 F2220 X206.220 Y99.600 E1333.34618
G0 F12000 X206.220 Y99.200
G1 F2220 X98.778 Y99.200 E1336.02633
G0 F12000 X98.778 Y98.800
G1 F2220 X206.220 Y98.800 E1338.70648
G0 F12000 X206.220 Y98.400
G1 F2220 X98.778 Y98.400 E1341.38663
G0 F12000 X98.778 Y98.000
G1 F2220 X206.220 Y98.000 E1344.06679
G0 F12000 X206.220 Y97.600
G1 F2220 X98.778 Y97.600 E1346.74694
G0 F12000 X98.778 Y97.200
G1 F2220 X206.220 Y97.200 E1349.42709
G0 F12000 X206.220 Y96.800
G1 F2220 X98.778 Y96.800 E1352.10724
G0 F12000 X98.778 Y96.400
G1 F2220 X206.220 Y96.400 E1354.78739
G0 F12000 X206.220 Y96.000
G1 F2220 X98.778 Y96.000 E1357.46754
G0 F12000 X98.778 Y95.600
G1 F2220 X206.220 Y95.600 E1360.14770
G0 F12000 X206.220 Y95.200
G1 F2220 X98.778 Y95.200 E1362.82785
G0 F12000 X98.778 Y94.800
G1 F2220 X206.220 Y94.800 E1365.50800
G0 F12000 X206.220 Y94.400
G1 F2220 X98.778 Y94.400 E1368.18815
G0 F12000 X98.778 Y94.000
G1 F2220 X206.220 Y94.000 E1370.86830
G0 F12000 X206.220 Y93.600
G1 F2220 X98.778 Y93.600 E1373.54845
G0 F12000 X98.778 Y93.200
G1 F2220 X206.220 Y93.200 E1376.22860
G0 F12000 X206.220 Y92.800
G1 F2220 X98.778 Y92.800 E1378.90876
G0 F12000 X98.778 Y92.400
G1 F2220 X206.220 Y92.400 E1381.58891
G0 F12000 X206.220 Y92.000
G1 F2220 X98.778 Y92.000 E1384.26906
G0 F12000 X98.778 Y91.600
G1 F2220 X206.220 Y91.600 E1386.94921
G0 F12000 X206.220 Y91.200
G1 F2220 X98.778 Y91.200 E1389.62936
G0 F12000 X98.778 Y90.800
G1 F2220 X206.220 Y90.800 E1392.30951
G0 F12000 X206.220 Y90.400
G1 F2220 X98.778 Y90.400 E1394.98967
G0 F12000 X98.778 Y90.000
G1 F2220 X206.220 Y90.000 E1397.66982
G0 F12000 X206.220 Y89.600
G1 F2220 X98.778 Y89.600 E1400.34997
G0 F12000 X98.778 Y89.200
G1 F2220 X206.220 Y89.200 E1403.03012
G0 F12000 X206.220 Y88.800
G1 F2220 X98.778 Y88.800 E1405.71027
G0 F12000 X98.778 Y88.400
G1 F2220 X206.220 Y88.400 E1408.39042
G0 F12000 X206.220 Y88.000
G1 F2220 X98.778 Y88.000 E1411.07058
G0 F12000 X98.778 Y87.600
G1 F2220 X206.220 Y87.600 E1413.75073
G0 F12000 X206.220 Y87.200
G1 F2220 X98.778 Y87.200 E1416.43088
G0 F12000 X98.778 Y86.800
G1 F2220 X206.220 Y86.800 E1419.11103
G0 F12000 X206.220 Y86.400
G1 F2220 X98.778 Y86.400 E1421.79118
G1 F2100 E1421.39118
G0 F12000 X194.182 Y140.000
G1 F2100 E1421.79118
G1 F2220 X206.220 Y140.000 E1422.09147
G0 F12000 X206.220 Y140.400
G1 F2220 X194.182 Y140.400 E1422.39176
G0 F12000 X194.182 Y140.800
G1 F2220 X206.220 Y140.800 E1422.69205
G0 F12000 X206.220 Y141.200
G1 F2220 X194.182 Y141.200 E1422.99234
G0 F12000 X194.182 Y141.600
G1 F2220 X206.220 Y141.600 E1423.29263
G0 F12000 X206.220 Y142.000
G1 F2220 X194.182 Y142.000 E1423.59292
G0 F12000 X194.182 Y142.400
G1 F2220 X206.220 Y142.400 E1423.89321
G0 F12000 X206.220 Y142.800
G1 F2220 X194.182 Y142.800 E1424.19349
G0 F12000 X194.182 Y143.200
G1 F2220 X206.220 Y143.200 E1424.49378
G0 F12000 X206.220 Y143.600
G1 F2220 X194.182 Y143.600 E1424.79407
G0 F12000 X194.182 Y144.000
G1 F2220 X206.220 Y144.000 E1425.09436
G0 F12000 X206.220 Y144.400
G1 F2220 X194.182 Y144.400 E1425.39465
G0 F12000 X194.182 Y144.800
G1 F2220 X206.220 Y144.800 E1425.69494
G0 F12000 X206.220 Y145.200
G1 F2220 X194.182 Y145.200 E1425.99523
G0 F12000 X194.182 Y145.600
G1 F2220 X206.220 Y145.600 E1426.29552
G0 F12000 X206.220 Y146.000
G1 F2220 X194.182 Y146.000 E1426.59581
G0 F12000 X194.182 Y146.400
G1 F2220 X206.220 Y146.400 E1426.89610
G0 F12000 X206.220 Y146.800
G1 F2220 X194.182 Y146.800 E1427.19639
G0 F12000 X194.182 Y147.200
G1 F2220 X206.220 Y147.200 E1427.49668
G0 F12000 X206.220 Y147.600
G1 F2220 X194.182 Y147.600 E1427.79696
G0 F12000 X194.182 Y148.000
G1 F2220 X206.220 Y148.000 E1428.09725
G0 F12000 X206.220 Y148.400
G1 F2220 X194.182 Y148.400 E1428.39754
G0 F12000 X194.182 Y148.800
G1 F2220 X206.220 Y148.800 E1428.69783
G0 F12000 X206.220 Y149.200
G1 F2220 X194.182 Y149.200 E1428.99812
G0 F12000 X194.182 Y149.600
G1 F2220 X206.220 Y149.600 E1429.29841
G0 F12000 X206.220 Y150.000
G1 F2220 X194.182 Y150.000 E1429.59870
G0 F12000 X194.182 Y150.400
G1 F2220 X206.220 Y150.400 E1429.89899
G0 F12000 X206.220 Y150.800
G1 F2220 X194.182 Y150.800 E1430.19928
G0 F12000 X194.182 Y151.200
G1 F2220 X206.220 Y151.200 E1430.49957
G0 F12000 X206.220 Y151.600
G1 F2220 X194.182 Y151.600 E1430.79986
G0 F12000 X194.182 Y152.000
G1 F2220 X206.220 Y152.000 E1431.10014
G0 F12000 X206.220 Y152.400
G1 F2220 X194.182 Y152.400 E1431.40043
G0 F12000 X194.182 Y152.800
G1 F2220 X206.220 Y152.800 E1431.70072
G0 F12000 X206.220 Y153.200
G1 F2220 X194.182 Y153.200 E1432.00101
G0 F12000 X194.182 Y153.600
G1 F2220 X206.220 Y153.600 E1432.30130
G0 F12000 X206.220 Y154.000
G1 F2220 X194.182 Y154.000 E1432.60159
G0 F12000 X194.182 Y154.400
G1 F2220 X206.220 Y154.400 E1432.90188
G0 F12000 X206.220 Y154.800
G1 F2220 X194.182 Y154.800 E1433.20217
G0 F12000 X194.182 Y155.200
G1 F2220 X206.220 Y155.200 E1433.50246
G0 F12000 X206.220 Y155.600
G1 F2220 X194.182 Y155.600 E1433.80275
G0 F12000 X194.182 Y156.000
G1 F2220 X206.220 Y156.000 E1434.10304
G0 F12000 X206.220 Y156.400
G1 F2220 X194.182 Y156.400 E1434.40333
G0 F12000 X194.182 Y156.800
G1 F2220 X206.220 Y156.800 E1434.70361
G0 F12000 X206.220 Y157.200
G1 F2220 X194.182 Y157.200 E1435.00390
G0 F12000 X194.182 Y157.600
G1 F2220 X206.220 Y157.600 E1435.30419
G0 F12000 X206.220 Y158.000
G1 F2220 X194.182 Y158.000 E1435.60448
G0 F12000 X194.182 Y158.400
G1 F2220 X206.220 Y158.400 E1435.90477
G0 F12000 X206.220 Y158.800
G1 F2220 X194.182 Y158.800 E1436.20506
G0 F12000 X194.182 Y159.200
G1 F2220 X206.220 Y159.200 E1436.50535
G0 F12000 X206.220 Y159.600
G1 F2220 X194.182 Y159.600 E1436.80564
G0 F12000 X194.182 Y160.000
G1 F2220 X206.220 Y160.000 E1437.10593
G0 F12000 X206.220 Y160.400
G1 F2220 X194.182 Y160.400 E1437.40622
G0 F12000 X194.182 Y160.800
G1 F2220 X206.220 Y160.800 E1437.70651
G0 F12000 X206.220 Y161.200
G1 F2220 X194.182 Y161.200 E1438.00679
G0 F12000 X194.182 Y161.600
G1 F2220 X206.220 Y161.600 E1438.30708
G0 F12000 X206.220 Y162.000
G1 F2220 X194.182 Y162.000 E1438.60737
G0 F12000 X194.182 Y162.400
G1 F2220 X206.220 Y162.400 E1438.90766
G0 F12000 X206.220 Y162.800
G1 F2220 X194.182 Y162.800 E1439.20795
G0 F12000 X194.182 Y163.200
G1 F2220 X206.220 Y163.200 E1439.50824
G0 F12000 X206.220 Y163.600
G1 F2220 X194.182 Y163.600 E1439.80853
G0 F12000 X194.182 Y164.000
G1 F2220 X206.220 Y164.000 E1440.10882
G0 F12000 X206.220 Y164.400
G1 F2220 X194.182 Y164.400 E1440.40911
G0 F12000 X194.182 Y164.800
G1 F2220 X206.220 Y164.800 E1440.70940
G0 F12000 X206.220 Y165.200
G1 F2220 X194.182 Y165.200 E1441.00969
G0 F12000 X194.182 Y165.600
G1 F2220 X206.220 Y165.600 E1441.30998
G0 F12000 X206.220 Y166.000
G1 F2220 X194.182 Y166.000 E1441.61026
G0 F12000 X194.182 Y166.400
G1 F2220 X206.220 Y166.400 E1441.91055
G0 F12000 X206.220 Y166.800
G1 F2220 X194.182 Y166.800 E1442.21084
G0 F12000 X194.182 Y167.200
G1 F2220 X206.220 Y167.200 E1442.51113
G0 F12000 X206.220 Y167.600
G1 F2220 X194.182 Y167.600 E1442.81142
G0 F12000 X194.182 Y168.000
G1 F2220 X206.220 Y168.000 E1443.11171
G0 F12000 X206.220 Y168.400
G1 F2220 X194.182 Y168.400 E1443.41200
G0 F12000 X194.182 Y168.800
G1 F2220 X206.220 Y168.800 E1443.71229
G0 F12000 X206.220 Y169.200
G1 F2220 X194.182 Y169.200 E1444.01258
G0 F12000 X194.182 Y169.600
G1 F2220 X206.220 Y169.600 E1444.31287
G0 F12000 X206.220 Y170.000
G1 F2220 X194.182 Y170.000 E1444.61316
G0 F12000 X194.182 Y170.400
G1 F2220 X206.220 Y170.400 E1444.91344
G0 F12000 X206.220 Y170.800
G1 F2220 X194.182 Y170.800 E1445.21373
G0 F12000 X194.182 Y171.200
G1 F2220 X206.220 Y171.200 E1445.51402
G0 F12000 X206.220 Y171.600
G1 F2220 X194.182 Y171.600 E1445.81431
G0 F12000 X194.182 Y172.000
G1 F2220 X206.220 Y172.000 E1446.11460
G0 F12000 X206.220 Y172.400
G1 F2220 X194.182 Y172.400 E1446.41489
G0 F12000 X194.182 Y172.800
G1 F2220 X206.220 Y172.800 E1446.71518
G0 F12000 X206.220 Y173.200
G1 F2220 X194.182 Y173.200 E1447.01547
G0 F12000 X194.182 Y173.600
G1 F2220 X206.220 Y173.600 E1447.31576
G0 F12000 X206.220 Y174.000
G1 F2220 X194.182 Y174.000 E1447.61605
G0 F12000 X194.182 Y174.400
G1 F2220 X206.220 Y174.400 E1447.91634
G0 F12000 X206.220 Y174.800
G1 F2220 X194.182 Y174.800 E1448.21663
G0 F12000 X194.182 Y175.200
G1 F2220 X206.220 Y175.200 E1448.51691
G0 F12000 X206.220 Y175.600
G1 F2220 X194.182 Y175.600 E1448.81720
G0 F12000 X194.182 Y176.000
G1 F2220 X206.220 Y176.000 E1449.11749
G0 F12000 X206.220 Y176.400
G1 F2220 X194.182 Y176.400 E1449.41778
G0 F12000 X194.182 Y176.800
G1 F2220 X206.220 Y176.800 E1449.71807
G0 F12000 X206.220 Y177.200
G1 F2220 X194.182 Y177.200 E1450.01836
G0 F12000 X194.182 Y177.600
G1 F2220 X206.220 Y177.600 E1450.31865
G0 F12000 X206.220 Y178.000
G1 F2220 X194.182 Y178.000 E1450.61894
G0 F12000 X194.182 Y178.400
G1 F2220 X206.220 Y178.400 E1450.91923
G0 F12000 X206.220 Y178.800
G1 F2220 X194.182 Y178.800 E1451.21952
G0 F12000 X194.182 Y179.200
G1 F2220 X206.220 Y179.200 E1451.51981
G0 F12000 X206.220 Y179.600
G1 F2220 X194.182 Y179.600 E1451.82009
G0 F12000 X194.182 Y180.000
G1 F2220 X206.220 Y180.000 E1452.12038
G0 F12000 X206.220 Y180.400
G1 F2220 X194.182 Y180.400 E1452.42067
G0 F12000 X194.182 Y180.800
G1 F2220 X206.220 Y180.800 E1452.72096
G0 F12000 X206.220 Y181.200
G1 F2220 X194.182 Y181.200 E1453.02125
G0 F12000 X194.182 Y181.600
G1 F2220 X206.220 Y181.600 E1453.32154
G0 F12000 X206.220 Y182.000
G1 F2220 X194.182 Y182.000 E1453.62183
G0 F12000 X194.182 Y182.400
G1 F2220 X206.220 Y182.400 E1453.92212
G0 F12000 X206.220 Y182.800
G1 F2220 X194.182 Y182.800 E1454.22241
G0 F12000 X194.182 Y183.200
G1 F2220 X206.220 Y183.200 E1454.52270
G0 F12000 X206.220 Y183.600
G1 F2220 X194.182 Y183.600 E1454.82299
G0 F12000 X194.182 Y184.000
G1 F2220 X206.220 Y184.000 E1455.12328
G0 F12000 X206.220 Y184.400
G1 F2220 X194.182 Y184.400 E1455.42356
G0 F12000 X194.182 Y184.800
G1 F2220 X206.220 Y184.800 E1455.72385
G0 F12000 X206.220 Y185.200
G1 F2220 X194.182 Y185.200 E1456.02414
G0 F12000 X194.182 Y185.600
G1 F2220 X206.220 Y185.600 E1456.32443
G0 F12000 X206.220 Y186.000
G1 F2220 X194.182 Y186.000 E1456.62472
G0 F12000 X194.182 Y186.400
G1 F2220 X206.220 Y186.400 E1456.92501
G0 F12000 X206.220 Y186.800
G1 F2220 X194.182 Y186.800 E1457.22530
G0 F12000 X194.182 Y187.200
G1 F2220 X206.220 Y187.200 E1457.52559
G0 F12000 X206.220 Y187.600
G1 F2220 X194.182 Y187.600 E1457.82588
G0 F12000 X194.182 Y188.000
G1 F2220 X206.220 Y188.000 E1458.12617
G0 F12000 X206.220 Y188.400
G1 F2220 X194.182 Y188.400 E1458.42646
G0 F12000 X194.182 Y188.800
G1 F2220 X206.220 Y188.800 E1458.72674
G0 F12000 X206.220 Y189.200
G1 F2220 X194.182 Y189.200 E1459.02703
G0 F12000 X194.182 Y189.600
G1 F2220 X206.220 Y189.600 E1459.32732
G0 F12000 X206.220 Y190.000
G1 F2220 X194.182 Y190.000 E1459.62761
G0 F12000 X194.182 Y190.400
G1 F2220 X206.220 Y190.400 E1459.92790
G0 F12000 X206.220 Y190.800
G1 F2220 X194.182 Y190.800 E1460.22819
G0 F12000 X194.182 Y191.200
G1 F2220 X206.220 Y191.200 E1460.52848
G0 F12000 X206.220 Y191.600
G1 F2220 X194.182 Y191.600 E1460.82877
G0 F12000 X194.182 Y192.000
G1 F2220 X206.220 Y192.000 E1461.12906
G0 F12000 X206.220 Y192.400
G1 F2220 X194.182 Y192.400 E1461.42935
G0 F12000 X194.182 Y192.800
G1 F2220 X206.220 Y192.800 E1461.72964
G0 F12000 X206.220 Y193.200
G1 F2220 X194.182 Y193.200 E1462.02993
G0 F12000 X194.182 Y193.600
G1 F2220 X206.220 Y193.600 E1462.33021
G0 F12000 X206.220 Y194.000
G1 F2220 X194.182 Y194.000 E1462.63050
G0 F12000 X194.182 Y194.400
G1 F2220 X206.220 Y194.400 E1462.93079
G0 F12000 X206.220 Y194.800
G1 F2220 X194.182 Y194.800 E1463.23108
G0 F12000 X194.182 Y195.200
G1 F2220 X206.220 Y195.200 E1463.53137
G0 F12000 X206.220 Y195.600
G1 F2220 X194.182 Y195.600 E1463.83166
G0 F12000 X194.182 Y196.000
G1 F2220 X206.220 Y196.000 E1464.13195
G0 F12000 X206.220 Y196.400
G1 F2220 X194.182 Y196.400 E1464.43224
G0 F12000 X194.182 Y196.800
G1 F2220 X206.220 Y196.800 E1464.73253
G0 F12000 X206.220 Y197.200
G1 F2220 X194.182 Y197.200 E1465.03282
G0 F12000 X194.182 Y197.600
G1 F2220 X206.220 Y197.600 E1465.33311
G0 F12000 X206.220 Y198.000
G1 F2220 X194.182 Y198.000 E1465.63339
G0 F12000 X194.182 Y198.400
G1 F2220 X206.220 Y198.400 E1465.93368
G0 F12000 X206.220 Y198.800
G1 F2220 X194.182 Y198.800 E1466.23397
G0 F12000 X194.182 Y199.200
G1 F2220 X206.220 Y199.200 E1466.53426
G0 F12000 X206.220 Y199.600
G1 F2220 X194.182 Y199.600 E1466.83455
G0 F12000 X194.182 Y200.000
G1 F2220 X206.220 Y200.000 E1467.13484
G0 F12000 X206.220 Y200.400
G1 F2220 X194.182 Y200.400 E1467.43513
G0 F12000 X194.182 Y200.800
G1 F2220 X206.220 Y200.800 E1467.73542
G0 F12000 X206.220 Y201.200
G1 F2220 X194.182 Y201.200 E1468.03571
G0 F12000 X194.182 Y201.600
G1 F2220 X206.220 Y201.600 E1468.33600
G0 F12000 X206.220 Y202.000
G1 F2220 X194.182 Y202.000 E1468.63629
G0 F12000 X194.182 Y202.400
G1 F2220 X206.220 Y202.400 E1468.93658
G0 F12000 X206.220 Y202.800
G1 F2220 X194.182 Y202.800 E1469.23686
G0 F12000 X194.182 Y203.200
G1 F2220 X206.220 Y203.200 E1469.53715
G0 F12000 X206.220 Y203.600
G1 F2220 X194.182 Y203.600 E1469.83744
G0 F12000 X194.182 Y204.000
G1 F2220 X206.220 Y204.000 E1470.13773
G0 F12000 X206.220 Y204.400
G1 F2220 X194.182 Y204.400 E1470.43802
;LAYER:2
M106 S7
G0 F12000 X194.043 Y204.399 Z0.500
;TYPE:WALL-INNER
G1 F2700 X194.043 Y122.943 E1472.46995
G1 X112.595 Y122.943 E1474.50168
G1 X112.595 Y204.399 E1476.53361
G1 X194.043 Y204.399 E1478.56533
G1 F2100 E1478.16533
G0 F12000 X206.361 Y219.061
G1 F2100 E1478.56533
G1 F2700 X98.639 Y219.061 E1481.25247
G1 X98.639 Y85.939 E1484.57321
G1 X206.361 Y85.939 E1487.26035
G1 X206.361 Y219.061 E1490.58109
G0 F12000 X206.761 Y219.461
;TYPE:WALL-OUTER
G1 F2700 X98.239 Y219.461 E1493.28818
G1 X98.239 Y85.539 E1496.62888
G1 X206.761 Y85.539 E1499.33597
G1 X206.761 Y219.461 E1502.67667
G1 F2100 E1502.27667
G0 F12000 X193.643 Y203.999
G1 F2100 E1502.67667
G1 F2700 X193.643 Y123.343 E1504.68864
G1 X112.995 Y123.343 E1506.70042
G1 X112.995 Y203.999 E1508.71239
G1 X193.643 Y203.999 E1510.72416
G0 F12000 X193.600 Y204.539
;TYPE:SKIN
G1 F2700 X193.600 Y218.921 E1511.08292
G0 F12000 X193.200 Y218.921
G1 F2700 X193.200 Y204.539 E1511.44168
G0 F12000 X192.800 Y204.539
G1 F2700 X192.800 Y218.921 E1511.80044
G0 F12000 X192.400 Y218.921
G1 F2700 X192.400 Y204.539 E1512.15920
G0 F12000 X192.000 Y204.539
G1 F2700 X192.000 Y218.921 E1512.51796
G0 F12000 X191.600 Y218.921
G1 F2700 X191.600 Y204.539 E1512.87672
G0 F12000 X191.200 Y204.539
G1 F2700 X191.200 Y218.921 E1513.23548
G0 F12000 X190.800 Y218.921
G1 F2700 X190.800 Y204.539 E1513.59424
G0 F12000 X190.400 Y204.539
G1 F2700 X190.400 Y218.921 E1513.95300
G0 F12000 X190.000 Y218.921
G1 F2700 X190.000 Y204.539 E1514.31176
G0 F12000 X189.600 Y204.539
G1 F2700 X189.600 Y218.921 E1514.67052
G0 F12000 X189.200 Y218.921
G1 F2700 X189.200 Y204.539 E1515.02929
G0 F12000 X188.800 Y204.539
G1 F2700 X188.800 Y218.921 E1515.38805
G0 F12000 X188.400 Y218.921
G1 F2700 X188.400 Y204.539 E1515.74681
G0 F12000 X188.000 Y204.539
G1 F2700 X188.000 Y218.921 E1516.10557
G0 F12000 X187.600 Y218.921
G1 F2700 X187.600 Y204.539 E1516.46433
G0 F12000 X187.200 Y204.539
G1 F2700 X187.200 Y218.921 E1516.82309
G0 F12000 X186.800 Y218.921
G1 F2700 X186.800 Y204.539 E1517.18185
G0 F12000 X186.400 Y204.539
G1 F2700 X186.400 Y218.921 E1517.54061
G0 F12000 X186.000 Y218.921
G1 F2700 X186.000 Y204.539 E1517.89937
G0 F12000 X185.600 Y204.539
G1 F2700 X185.600 Y218.921 E1518.25813
G0 F12000 X185.200 Y218.921
G1 F2700 X185.200 Y204.539 E1518.61689
G0 F12000 X184.800 Y204.539
G1 F2700 X184.800 Y218.921 E1518.97565
G0 F12000 X184.400 Y218.921
G1 F2700 X184.400 Y204.539 E1519.33441
G0 F12000 X184.000 Y204.539
G1 F2700 X184.000 Y218.921 E1519.69317
G0 F12000 X183.600 Y218.921
G1 F2700 X183.600 Y204.539 E1520.05193
G0 F12000 X183.200 Y204.539
G1 F2700 X183.200 Y218.921 E1520.41069
G0 F12000 X182.800 Y218.921
G1 F2700 X182.800 Y204.539 E1520.76945
G0 F12000 X182.400 Y204.539
G1 F2700 X182.400 Y218.921 E1521.12821
G0 F12000 X182.000 Y218.921
G1 F2700 X182.000 Y204.539 E1521.48697
G0 F12000 X181.600 Y204.539
G1 F2700 X181.600 Y218.921 E1521.84573
G0 F12000 X181.200 Y218.921
G1 F2700 X181.200 Y204.539 E1522.20449
G0 F12000 X180.800 Y204.539
G1 F2700 X180.800 Y218.921 E1522.56325
G0 F12000 X180.400 Y218.921
G1 F2700 X180.400 Y204.539 E1522.92201
G0 F12000 X180.000 Y204.539
G1 F2700 X180.000 Y218.921 E1523.28078
G1 F2100 E1522.88078
G0 F12000 X194.000 Y218.921
G1 F2100 E1523.28078
G1 F2700 X194.000 Y204.539 E1523.63954
G1 F2100 E1523.23954
G0 F12000 X194.400 Y218.921
G1 F2100 E1523.63954
G1 F2700 X194.400 Y86.079 E1526.95329
G0 F12000 X194.000 Y86.079
G1 F2700 X194.000 Y122.803 E1527.86938
G0 F12000 X193.600 Y122.803
G1 F2700 X193.600 Y86.079 E1528.78546
G0 F12000 X193.200 Y86.079
G1 F2700 X193.200 Y122.803 E1529.70154
G0 F12000 X192.800 Y122.803
G1 F2700 X192.800 Y86.079 E1530.61763
G0 F12000 X192.400 Y86.079
G1 F2700 X192.400 Y122.803 E1531.53371
G0 F12000 X192.000 Y122.803
G1 F2700 X192.000 Y86.079 E1532.44980
G0 F12000 X191.600 Y86.079
G1 F2700 X191.600 Y122.803 E1533.36588
G0 F12000 X191.200 Y122.803
G1 F2700 X191.200 Y86.079 E1534.28196
G0 F12000 X190.800 Y86.079
G1 F2700 X190.800 Y122.803 E1535.19805
G0 F12000 X190.400 Y122.803
G1 F2700 X190.400 Y86.079 E1536.11413
G0 F12000 X190.000 Y86.079
G1 F2700 X190.000 Y122.803 E1537.03022
G0 F12000 X189.600 Y122.803
G1 F2700 X189.600 Y86.079 E1537.94630
G0 F12000 X189.200 Y86.079
G1 F2700 X189.200 Y122.803 E1538.86238
G0 F12000 X188.800 Y122.803
G1 F2700 X188.800 Y86.079 E1539.77847
G0 F12000 X188.400 Y86.079
G1 F2700 X188.400 Y122.803 E1540.69455
G0 F12000 X188.000 Y122.803
G1 F2700 X188.000 Y86.079 E1541.61064
G0 F12000 X187.600 Y86.079
G1 F2700 X187.600 Y122.803 E1542.52672
G0 F12000 X187.200 Y122.803
G1 F2700 X187.200 Y86.079 E1543.44280
G0 F12000 X186.800 Y86.079
G1 F2700 X186.800 Y122.803 E1544.35889
G0 F12000 X186.400 Y122.803
G1 F2700 X186.400 Y86.079 E1545.27497
G0 F12000 X186.000 Y86.079
G1 F2700 X186.000 Y122.803 E1546.19105
G0 F12000 X185.600 Y122.803
G1 F2700 X185.600 Y86.079 E1547.10714
G0 F12000 X185.200 Y86.079
G1 F2700 X185.200 Y122.803 E1548.02322
G0 F12000 X184.800 Y122.803
G1 F2700 X184.800 Y86.079 E1548.93931
G0 F12000 X184.400 Y86.079
G1 F2700 X184.400 Y122.803 E1549.85539
G0 F12000 X184.000 Y122.803
G1 F2700 X184.000 Y86.079 E1550.77147
G0 F12000 X183.600 Y86.079
G1 F2700 X183.600 Y122.803 E1551.68756
G0 F12000 X183.200 Y122.803
G1 F2700 X183.200 Y86.079 E1552.60364
G0 F12000 X182.800 Y86.079
G1 F2700 X182.800 Y122.803 E1553.51973
G0 F12000 X182.400 Y122.803
G1 F2700 X182.400 Y86.079 E1554.43581
G0 F12000 X182.000 Y86.079
G1 F2700 X182.000 Y122.803 E1555.35189
G0 F12000 X181.600 Y122.803
G1 F2700 X181.600 Y86.079 E1556.26798
G0 F12000 X181.200 Y86.079
G1 F2700 X181.200 Y122.803 E1557.18406
G0 F12000 X180.800 Y122.803
G1 F2700 X180.800 Y86.079 E1558.10015
G0 F12000 X180.400 Y86.079
G1 F2700 X180.400 Y122.803 E1559.01623
G0 F12000 X180.000 Y122.803
G1 F2700 X180.000 Y86.079 E1559.93231
G1 F2100 E1559.53231
G0 F12000 X194.800 Y86.079
G1 F2100 E1559.93231
G1 F2700 X194.800 Y218.921 E1563.24607
G0 F12000 X195.200 Y218.921
G1 F2700 X195.200 Y86.079 E1566.55983
G0 F12000 X195.600 Y86.079
G1 F2700 X195.600 Y218.921 E1569.87358
G0 F12000 X196.000 Y218.921
G1 F2700 X196.000 Y86.079 E1573.18734
G0 F12000 X196.400 Y86.079
G1 F2700 X196.400 Y218.921 E1576.50110
G0 F12000 X196.800 Y218.921
G1 F2700 X196.800 Y86.079 E1579.81486
G0 F12000 X197.200 Y86.079
G1 F2700 X197.200 Y218.921 E1583.12861
G0 F12000 X197.600 Y218.921
G1 F2700 X197.600 Y86.079 E1586.44237
G0 F12000 X198.000 Y86.079
G1 F2700 X198.000 Y218.921 E1589.75613
G0 F12000 X198.400 Y218.921
G1 F2700 X198.400 Y86.079 E1593.06988
G0 F12000 X198.800 Y86.079
G1 F2700 X198.800 Y218.921 E1596.38364
G0 F12000 X199.200 Y218.921
G1 F2700 X199.200 Y86.079 E1599.69740
G0 F12000 X199.600 Y86.079
G1 F2700 X199.600 Y218.921 E1603.01116
G0 F12000 X200.000 Y218.921
G1 F2700 X200.000 Y86.079 E1606.32491
G0 F12000 X200.400 Y86.079
G1 F2700 X200.400 Y218.921 E1609.63867
G0 F12000 X200.800 Y218.921
G1 F2700 X200.800 Y86.079 E1612.95243
G0 F12000 X201.200 Y86.079
G1 F2700 X201.200 Y218.921 E1616.26618
G0 F12000 X201.600 Y218.921
G1 F2700 X201.600 Y86.079 E1619.57994
G0 F12000 X202.000 Y86.079
G1 F2700 X202.000 Y218.921 E1622.89370
G0 F12000 X202.400 Y218.921
G1 F2700 X202.400 Y86.079 E1626.20746
G0 F12000 X202.800 Y86.079
G1 F2700 X202.800 Y218.921 E1629.52121
G0 F12000 X203.200 Y218.921
G1 F2700 X203.200 Y86.079 E1632.83497
G0 F12000 X203.600 Y86.079
G1 F2700 X203.600 Y218.921 E1636.14873
G0 F12000 X204.000 Y218.921
G1 F2700 X204.000 Y86.079 E1639.46248
G0 F12000 X204.400 Y86.079
G1 F2700 X204.400 Y218.921 E1642.77624
G0 F12000 X204.800 Y218.921
G1 F2700 X204.800 Y86.079 E1646.09000
G0 F12000 X205.200 Y86.079
G1 F2700 X205.200 Y218.921 E1649.40376
G0 F12000 X205.600 Y218.921
G1 F2700 X205.600 Y86.079 E1652.71751
G0 F12000 X206.000 Y86.079
G1 F2700 X206.000 Y218.921 E1656.03127
G1 F2100 E1655.63127
G0 F12000 X179.600 Y218.921
G1 F2100 E1656.03127
G1 F2700 X179.600 Y204.539 E1656.39003
G0 F12000 X179.200 Y204.539
G1 F2700 X179.200 Y218.921 E1656.74879
G0 F12000 X178.800 Y218.921
G1 F2700 X178.800 Y204.539 E1657.10755
G0 F12000 X178.400 Y204.539
G1 F2700 X178.400 Y218.921 E1657.46631
G0 F12000 X178.000 Y218.921
G1 F2700 X178.000 Y204.539 E1657.82507
G0 F12000 X177.600 Y204.539
G1 F2700 X177.600 Y218.921 E1658.18383
G0 F12000 X177.200 Y218.921
G1 F2700 X177.200 Y204.539 E1658.54259
G0 F12000 X176.800 Y204.539
G1 F2700 X176.800 Y218.921 E1658.90135
G0 F12000 X176.400 Y218.921
G1 F2700 X176.400 Y204.539 E1659.26011
G0 F12000 X176.000 Y204.539
G1 F2700 X176.000 Y218.921 E1659.61887
G0 F12000 X175.600 Y218.921
G1 F2700 X175.600 Y204.539 E1659.97764
G0 F12000 X175.200 Y204.539
G1 F2700 X175.200 Y218.921 E1660.33640
G0 F12000 X174.800 Y218.921
G1 F2700 X174.800 Y204.539 E1660.69516
G0 F12000 X174.400 Y204.539
G1 F2700 X174.400 Y218.921 E1661.05392
G0 F12000 X174.000 Y218.921
G1 F2700 X174.000 Y204.539 E1661.41268
G0 F12000 X173.600 Y204.539
G1 F2700 X173.600 Y218.921 E1661.77144
G0 F12000 X173.200 Y218.921
G1 F2700 X173.200 Y204.539 E1662.13020
G0 F12000 X172.800 Y204.539
G1 F2700 X172.800 Y218.921 E1662.48896
G0 F12000 X172.400 Y218.921
G1 F2700 X172.400 Y204.539 E1662.84772
G0 F12000 X172.000 Y204.539
G1 F2700 X172.000 Y218.921 E1663.20648
G0 F12000 X171.600 Y218.921
G1 F2700 X171.600 Y204.539 E1663.56524
G0 F12000 X171.200 Y204.539
G1 F2700 X171.200 Y218.921 E1663.92400
G0 F12000 X170.800 Y218.921
G1 F2700 X170.800 Y204.539 E1664.28276
G0 F12000 X170.400 Y204.539
G1 F2700 X170.400 Y218.921 E1664.64152
G0 F12000 X170.000 Y218.921
G1 F2700 X170.000 Y204.539 E1665.00028
G0 F12000 X169.600 Y204.539
G1 F2700 X169.600 Y218.921 E1665.35904
G0 F12000 X169.200 Y218.921
G1 F2700 X169.200 Y204.539 E1665.71780
G0 F12000 X168.800 Y204.539
G1 F2700 X168.800 Y218.921 E1666.07656
G0 F12000 X168.400 Y218.921
G1 F2700 X168.400 Y204.539 E1666.43532
G0 F12000 X168.000 Y204.539
G1 F2700 X168.000 Y218.921 E1666.79408
G0 F12000 X167.600 Y218.921
G1 F2700 X167.600 Y204.539 E1667.15284
G0 F12000 X167.200 Y204.539
G1 F2700 X167.200 Y218.921 E1667.51160
G0 F12000 X166.800 Y218.921
G1 F2700 X166.800 Y204.539 E1667.87037
G0 F12000 X166.400 Y204.539
G1 F2700 X166.400 Y218.921 E1668.22913
G0 F12000 X166.000 Y218.921
G1 F2700 X166.000 Y204.539 E1668.58789
G0 F12000 X165.600 Y204.539
G1 F2700 X165.600 Y218.921 E1668.94665
G0 F12000 X165.200 Y218.921
G1 F2700 X165.200 Y204.539 E1669.30541
G0 F12000 X164.800 Y204.539
G1 F2700 X164.800 Y218.921 E1669.66417
G0 F12000 X164.400 Y218.921
G1 F2700 X164.400 Y204.539 E1670.02293
G0 F12000 X164.000 Y204.539
G1 F2700 X164.000 Y218.921 E1670.38169
G0 F12000 X163.600 Y218.921
G1 F2700 X163.600 Y204.539 E1670.74045
G0 F12000 X163.200 Y204.539
G1 F2700 X163.200 Y218.921 E1671.09921
G0 F12000 X162.800 Y218.921
G1 F2700 X162.800 Y204.539 E1671.45797
G0 F12000 X162.400 Y204.539
G1 F2700 X162.400 Y218.921 E1671.81673
G0 F12000 X162.000 Y218.921
G1 F2700 X162.000 Y204.539 E1672.17549
G0 F12000 X161.600 Y204.539
G1 F2700 X161.600 Y218.921 E1672.53425
G0 F12000 X161.200 Y218.921
G1 F2700 X161.200 Y204.539 E1672.89301
G0 F12000 X160.800 Y204.539
G1 F2700 X160.800 Y218.921 E1673.25177
G0 F12000 X160.400 Y218.921
G1 F2700 X160.400 Y204.539 E1673.61053
G0 F12000 X160.000 Y204.539
G1 F2700 X160.000 Y218.921 E1673.96929
G0 F12000 X159.600 Y218.921
G1 F2700 X159.600 Y204.539 E1674.32805
G0 F12000 X159.200 Y204.539
G1 F2700 X159.200 Y218.921 E1674.68681
G0 F12000 X158.800 Y218.921
G1 F2700 X158.800 Y204.539 E1675.04557
G0 F12000 X158.400 Y204.539
G1 F2700 X158.400 Y218.921 E1675.40433
G0 F12000 X158.000 Y218.921
G1 F2700 X158.000 Y204.539 E1675.76310
G0 F12000 X157.600 Y204.539
G1 F2700 X157.600 Y218.921 E1676.12186
G0 F12000 X157.200 Y218.921
G1 F2700 X157.200 Y204.539 E1676.48062
G0 F12000 X156.800 Y204.539
G1 F2700 X156.800 Y218.921 E1676.83938
G0 F12000 X156.400 Y218.921
G1 F2700 X156.400 Y204.539 E1677.19814
G0 F12000 X156.000 Y204.539
G1 F2700 X156.000 Y218.921 E1677.55690
G0 F12000 X155.600 Y218.921
G1 F2700 X155.600 Y204.539 E1677.91566
G0 F12000 X155.200 Y204.539
G1 F2700 X155.200 Y218.921 E1678.27442
G0 F12000 X154.800 Y218.921
G1 F2700 X154.800 Y204.539 E1678.63318
G0 F12000 X154.400 Y204.539
G1 F2700 X154.400 Y218.921 E1678.99194
G0 F12000 X154.000 Y218.921
G1 F2700 X154.000 Y204.539 E1679.35070
G0 F12000 X153.600 Y204.539
G1 F2700 X153.600 Y218.921 E1679.70946
G0 F12000 X153.200 Y218.921
G1 F2700 X153.200 Y204.539 E1680.06822
G0 F12000 X152.800 Y204.539
G1 F2700 X152.800 Y218.921 E1680.42698
G0 F12000 X152.400 Y218.921
G1 F2700 X152.400 Y204.539 E1680.78574
G0 F12000 X152.000 Y204.539
G1 F2700 X152.000 Y218.921 E1681.14450
G0 F12000 X151.600 Y218.921
G1 F2700 X151.600 Y204.539 E1681.50326
G0 F12000 X151.200 Y204.539
G1 F2700 X151.200 Y218.921 E1681.86202
G0 F12000 X150.800 Y218.921
G1 F2700 X150.800 Y204.539 E1682.22078
G0 F12000 X150.400 Y204.539
G1 F2700 X150.400 Y218.921 E1682.57954
G0 F12000 X150.000 Y218.921
G1 F2700 X150.000 Y204.539 E1682.93830
G0 F12000 X149.600 Y204.539
G1 F2700 X149.600 Y218.921 E1683.29706
G0 F12000 X149.200 Y218.921
G1 F2700 X149.200 Y204.539 E1683.65582
G0 F12000 X148.800 Y204.539
G1 F2700 X148.800 Y218.921 E1684.01459
G0 F12000 X148.400 Y218.921
G1 F2700 X148.400 Y204.539 E1684.37335
G0 F12000 X148.000 Y204.539
G1 F2700 X148.000 Y218.921 E1684.73211
G0 F12000 X147.600 Y218.921
G1 F2700 X147.600 Y204.539 E1685.09087
G0 F12000 X147.200 Y204.539
G1 F2700 X147.200 Y218.921 E1685.44963
G0 F12000 X146.800 Y218.921
G1 F2700 X146.800 Y204.539 E1685.80839
G0 F12000 X146.400 Y204.539
G1 F2700 X146.400 Y218.921 E1686.16715
G0 F12000 X146.000 Y218.921
G1 F2700 X146.000 Y204.539 E1686.52591
G0 F12000 X145.600 Y204.539
G1 F2700 X145.600 Y218.921 E1686.88467
G0 F12000 X145.200 Y218.921
G1 F2700 X145.200 Y204.539 E1687.24343
G0 F12000 X144.800 Y204.539
G1 F2700 X144.800 Y218.921 E1687.60219
G0 F12000 X144.400 Y218.921
G1 F2700 X144.400 Y204.539 E1687.96095
G0 F12000 X144.000 Y204.539
G1 F2700 X144.000 Y218.921 E1688.31971
G0 F12000 X143.600 Y218.921
G1 F2700 X143.600 Y204.539 E1688.67847
G0 F12000 X143.200 Y204.539
G1 F2700 X143.200 Y218.921 E1689.03723
G0 F12000 X142.800 Y218.921
G1 F2700 X142.800 Y204.539 E1689.39599
G0 F12000 X142.400 Y204.539
G1 F2700 X142.400 Y218.921 E1689.75475
G0 F12000 X142.000 Y218.921
G1 F2700 X142.000 Y204.539 E1690.11351
G0 F12000 X141.600 Y204.539
G1 F2700 X141.600 Y218.921 E1690.47227
G0 F12000 X141.200 Y218.921
G1 F2700 X141.200 Y204.539 E1690.83103
G0 F12000 X140.800 Y204.539
G1 F2700 X140.800 Y218.921 E1691.18979
G0 F12000 X140.400 Y218.921
G1 F2700 X140.400 Y204.539 E1691.54855
G0 F12000 X140.000 Y204.539
G1 F2700 X140.000 Y218.921 E1691.90732
G0 F12000 X139.600 Y218.921
G1 F2700 X139.600 Y204.539 E1692.26608
G0 F12000 X139.200 Y204.539
G1 F2700 X139.200 Y218.921 E1692.62484
G0 F12000 X138.800 Y218.921
G1 F2700 X138.800 Y204.539 E1692.98360
G0 F12000 X138.400 Y204.539
G1 F2700 X138.400 Y218.921 E1693.34236
G0 F12000 X138.000 Y218.921
G1 F2700 X138.000 Y204.539 E1693.70112
G0 F12000 X137.600 Y204.539
G1 F2700 X137.600 Y218.921 E1694.05988
G0 F12000 X137.200 Y218.921
G1 F2700 X137.200 Y204.539 E1694.41864
G0 F12000 X136.800 Y204.539
G1 F2700 X136.800 Y218.921 E1694.77740
G0 F12000 X136.400 Y218.921
G1 F2700 X136.400 Y204.539 E1695.13616
G0 F12000 X136.000 Y204.539
G1 F2700 X136.000 Y218.921 E1695.49492
G0 F12000 X135.600 Y218.921
G1 F2700 X135.600 Y204.539 E1695.85368
G0 F12000 X135.200 Y204.539
G1 F2700 X135.200 Y218.921 E1696.21244
G0 F12000 X134.800 Y218.921
G1 F2700 X134.800 Y204.539 E1696.57120
G0 F12000 X134.400 Y204.539
G1 F2700 X134.400 Y218.921 E1696.92996
G0 F12000 X134.000 Y218.921
G1 F2700 X134.000 Y204.539 E1697.28872
G0 F12000 X133.600 Y204.539
G1 F2700 X133.600 Y218.921 E1697.64748
G0 F12000 X133.200 Y218.921
G1 F2700 X133.200 Y204.539 E1698.00624
G0 F12000 X132.800 Y204.539
G1 F2700 X132.800 Y218.921 E1698.36500
G0 F12000 X132.400 Y218.921
G1 F2700 X132.400 Y204.539 E1698.72376
G0 F12000 X132.000 Y204.539
G1 F2700 X132.000 Y218.921 E1699.08252
G0 F12000 X131.600 Y218.921
G1 F2700 X131.600 Y204.539 E1699.44128
G0 F12000 X131.200 Y204.539
G1 F2700 X131.200 Y218.921 E1699.80004
G0 F12000 X130.800 Y218.921
G1 F2700 X130.800 Y204.539 E1700.15881
G0 F12000 X130.400 Y204.539
G1 F2700 X130.400 Y218.921 E1700.51757
G0 F12000 X130.000 Y218.921
G1 F2700 X130.000 Y204.539 E1700.87633
G0 F12000 X129.600 Y204.539
G1 F2700 X129.600 Y218.921 E1701.23509
G0 F12000 X129.200 Y218.921
G1 F2700 X129.200 Y204.539 E1701.59385
G0 F12000 X128.800 Y204.539
G1 F2700 X128.800 Y218.921 E1701.95261
G0 F12000 X128.400 Y218.921
G1 F2700 X128.400 Y204.539 E1702.31137
G0 F12000 X128.000 Y204.539
G1 F2700 X128.000 Y218.921 E1702.67013
G0 F12000 X127.600 Y218.921
G1 F2700 X127.600 Y204.539 E1703.02889
G0 F12000 X127.200 Y204.539
G1 F2700 X127.200 Y218.921 E1703.38765
G0 F12000 X126.800 Y218.921
G1 F2700 X126.800 Y204.539 E1703.74641
G0 F12000 X126.400 Y204.539
G1 F2700 X126.400 Y218.921 E1704.10517
G0 F12000 X126.000 Y218.921
G1 F2700 X126.000 Y204.539 E1704.46393
G0 F12000 X125.600 Y204.539
G1 F2700 X125.600 Y218.921 E1704.82269
G0 F12000 X125.200 Y218.921
G1 F2700 X125.200 Y204.539 E1705.18145
G0 F12000 X124.800 Y204.539
G1 F2700 X124.800 Y218.921 E1705.54021
G0 F12000 X124.400 Y218.921
G1 F2700 X124.400 Y204.539 E1705.89897
G0 F12000 X124.000 Y204.539
G1 F2700 X124.000 Y218.921 E1706.25773
G0 F12000 X123.600 Y218.921
G1 F2700 X123.600 Y204.539 E1706.61649
G0 F12000 X123.200 Y204.539
G1 F2700 X123.200 Y218.921 E1706.97525
G0 F12000 X122.800 Y218.921
G1 F2700 X122.800 Y204.539 E1707.33401
G0 F12000 X122.400 Y204.539
G1 F2700 X122.400 Y218.921 E1707.69277
G0 F12000 X122.000 Y218.921
G1 F2700 X122.000 Y204.539 E1708.05154
G0 F12000 X121.600 Y204.539
G1 F2700 X121.600 Y218.921 E1708.41030
G0 F12000 X121.200 Y218.921
G1 F2700 X121.200 Y204.539 E1708.76906
G0 F12000 X120.800 Y204.539
G1 F2700 X120.800 Y218.921 E1709.12782
G0 F12000 X120.400 Y218.921
G1 F2700 X120.400 Y204.539 E1709.48658
G0 F12000 X120.000 Y204.539
G1 F2700 X120.000 Y218.921 E1709.84534
G0 F12000 X119.600 Y218.921
G1 F2700 X119.600 Y204.539 E1710.20410
G0 F12000 X119.200 Y204.539
G1 F2700 X119.200 Y218.921 E1710.56286
G0 F12000 X118.800 Y218.921
G1 F2700 X118.800 Y204.539 E1710.92162
G0 F12000 X118.400 Y204.539
G1 F2700 X118.400 Y218.921 E1711.28038
G0 F12000 X118.000 Y218.921
G1 F2700 X118.000 Y204.539 E1711.63914
G0 F12000 X117.600 Y204.539
G1 F2700 X117.600 Y218.921 E1711.99790
G0 F12000 X117.200 Y218.921
G1 F2700 X117.200 Y204.539 E1712.35666
G0 F12000 X116.800 Y204.539
G1 F2700 X116.800 Y218.921 E1712.71542
G0 F12000 X116.400 Y218.921
G1 F2700 X116.400 Y204.539 E1713.07418
G0 F12000 X116.000 Y204.539
G1 F2700 X116.000 Y218.921 E1713.43294
G0 F12000 X115.600 Y218.921
G1 F2700 X115.600 Y204.539 E1713.79170
G0 F12000 X115.200 Y204.539
G1 F2700 X115.200 Y218.921 E1714.15046
G0 F12000 X114.800 Y218.921
G1 F2700 X114.800 Y204.539 E1714.50922
G0 F12000 X114.400 Y204.539
G1 F2700 X114.400 Y218.921 E1714.86798
G0 F12000 X114.000 Y218.921
G1 F2700 X114.000 Y204.539 E1715.22674
G0 F12000 X113.600 Y204.539
G1 F2700 X113.600 Y218.921 E1715.58550
G0 F12000 X113.200 Y218.921
G1 F2700 X113.200 Y204.539 E1715.94427
G0 F12000 X112.800 Y204.539
G1 F2700 X112.800 Y218.921 E1716.30303
G0 F12000 X112.400 Y218.921
G1 F2700 X112.400 Y86.079 E1719.61678
G0 F12000 X112.000 Y86.079
G1 F2700 X112.000 Y218.921 E1722.93054
G0 F12000 X111.600 Y218.921
G1 F2700 X111.600 Y86.079 E1726.24430
G0 F12000 X111.200 Y86.079
G1 F2700 X111.200 Y218.921 E1729.55805
G0 F12000 X110.800 Y218.921
G1 F2700 X110.800 Y86.079 E1732.87181
G0 F12000 X110.400 Y86.079
G1 F2700 X110.400 Y218.921 E1736.18557
G0 F12000 X110.000 Y218.921
G1 F2700 X110.000 Y86.079 E1739.49933
G0 F12000 X109.600 Y86.079
G1 F2700 X109.600 Y218.921 E1742.81308
G0 F12000 X109.200 Y218.921
G1 F2700 X109.200 Y86.079 E1746.12684
G0 F12000 X108.800 Y86.079
G1 F2700 X108.800 Y218.921 E1749.44060
G0 F12000 X108.400 Y218.921
G1 F2700 X108.400 Y86.079 E1752.75435
G0 F12000 X108.000 Y86.079
G1 F2700 X108.000 Y218.921 E1756.06811
G0 F12000 X107.600 Y218.921
G1 F2700 X107.600 Y86.079 E1759.38187
G0 F12000 X107.200 Y86.079
G1 F2700 X107.200 Y218.921 E1762.69563
G0 F12000 X106.800 Y218.921
G1 F2700 X106.800 Y86.079 E1766.00938
G0 F12000 X106.400 Y86.079
G1 F2700 X106.400 Y218.921 E1769.32314
G0 F12000 X106.000 Y218.921
G1 F2700 X106.000 Y86.079 E1772.63690
G0 F12000 X105.600 Y86.079
G1 F2700 X105.600 Y218.921 E1775.95065
G0 F12000 X105.200 Y218.921
G1 F2700 X105.200 Y86.079 E1779.26441
G0 F12000 X104.800 Y86.079
G1 F2700 X104.800 Y218.921 E1782.57817
G0 F12000 X104.400 Y218.921
G1 F2700 X104.400 Y86.079 E1785.89193
G0 F12000 X104.000 Y86.079
G1 F2700 X104.000 Y218.921 E1789.20568
G0 F12000 X103.600 Y218.921
G1 F2700 X103.600 Y86.079 E1792.51944
G0 F12000 X103.200 Y86.079
G1 F2700 X103.200 Y218.921 E1795.83320
G0 F12000 X102.800 Y218.921
G1 F2700 X102.800 Y86.079 E1799.14695
G0 F12000 X102.400 Y86.079
G1 F2700 X102.400 Y218.921 E1802.46071
G0 F12000 X102.000 Y218.921
G1 F2700 X102.000 Y86.079 E1805.77447
G0 F12000 X101.600 Y86.079
G1 F2700 X101.600 Y218.921 E1809.08823
G0 F12000 X101.200 Y218.921
G1 F2700 X101.200 Y86.079 E1812.40198
G0 F12000 X100.800 Y86.079
G1 F2700 X100.800 Y218.921 E1815.71574
G0 F12000 X100.400 Y218.921
G1 F2700 X100.400 Y86.079 E1819.02950
G0 F12000 X100.000 Y86.079
G1 F2700 X100.000 Y218.921 E1822.34325
G0 F12000 X99.600 Y218.921
G1 F2700 X99.600 Y86.079 E1825.65701
G0 F12000 X99.200 Y86.079
G1 F2700 X99.200 Y218.921 E1828.97077
G0 F12000 X98.800 Y218.921
G1 F2700 X98.800 Y86.079 E1832.28453
G1 F2100 E1831.88453
G0 F12000 X112.800 Y86.079
G1 F2100 E1832.28453
G1 F2700 X112.800 Y122.803 E1833.20061
G0 F12000 X113.200 Y122.803
G1 F2700 X113.200 Y86.079 E1834.11669
G0 F12000 X113.600 Y86.079
G1 F2700 X113.600 Y122.803 E1835.03278
G0 F12000 X114.000 Y122.803
G1 F2700 X114.000 Y86.079 E1835.94886
G0 F12000 X114.400 Y86.079
G1 F2700 X114.400 Y122.803 E1836.86495
G0 F12000 X114.800 Y122.803
G1 F2700 X114.800 Y86.079 E1837.78103
G0 F12000 X115.200 Y86.079
G1 F2700 X115.200 Y122.803 E1838.69711
G0 F12000 X115.600 Y122.803
G1 F2700 X115.600 Y86.079 E1839.61320
G0 F12000 X116.000 Y86.079
G1 F2700 X116.000 Y122.803 E1840.52928
G0 F12000 X116.400 Y122.803
G1 F2700 X116.400 Y86.079 E1841.44536
G0 F12000 X116.800 Y86.079
G1 F2700 X116.800 Y122.803 E1842.36145
G0 F12000 X117.200 Y122.803
G1 F2700 X117.200 Y86.079 E1843.27753
G0 F12000 X117.600 Y86.079
G1 F2700 X117.600 Y122.803 E1844.19362
G0 F12000 X118.000 Y122.803
G1 F2700 X118.000 Y86.079 E1845.10970
G0 F12000 X118.400 Y86.079
G1 F2700 X118.400 Y122.803 E1846.02578
G0 F12000 X118.800 Y122.803
G1 F2700 X118.800 Y86.079 E1846.94187
G0 F12000 X119.200 Y86.079
G1 F2700 X119.200 Y122.803 E1847.85795
G0 F12000 X119.600 Y122.803
G1 F2700 X119.600 Y86.079 E1848.77404
G0 F12000 X120.000 Y86.079
G1 F2700 X120.000 Y122.803 E1849.69012
G0 F12000 X120.400 Y122.803
G1 F2700 X120.400 Y86.079 E1850.60620
G0 F12000 X120.800 Y86.079
G1 F2700 X120.800 Y122.803 E1851.52229
G0 F12000 X121.200 Y122.803
G1 F2700 X121.200 Y86.079 E1852.43837
G0 F12000 X121.600 Y86.079
G1 F2700 X121.600 Y122.803 E1853.35446
G0 F12000 X122.000 Y122.803
G1 F2700 X122.000 Y86.079 E1854.27054
G0 F12000 X122.400 Y86.079
G1 F2700 X122.400 Y122.803 E1855.18662
G0 F12000 X122.800 Y122.803
G1 F2700 X122.800 Y86.079 E1856.10271
G0 F12000 X123.200 Y86.079
G1 F2700 X123.200 Y122.803 E1857.01879
G0 F12000 X123.600 Y122.803
G1 F2700 X123.600 Y86.079 E1857.93487
G0 F12000 X124.000 Y86.079
G1 F2700 X124.000 Y122.803 E1858.85096
G0 F12000 X124.400 Y122.803
G1 F2700 X124.400 Y86.079 E1859.76704
G0 F12000 X124.800 Y86.079
G1 F2700 X124.800 Y122.803 E1860.68313
G0 F12000 X125.200 Y122.803
G1 F2700 X125.200 Y86.079 E1861.59921
G0 F12000 X125.600 Y86.079
G1 F2700 X125.600 Y122.803 E1862.51529
G0 F12000 X126.000 Y122.803
G1 F2700 X126.000 Y86.079 E1863.43138
G0 F12000 X126.400 Y86.079
G1 F2700 X126.400 Y122.803 E1864.34746
G0 F12000 X126.800 Y122.803
G1 F2700 X126.800 Y86.079 E1865.26355
G0 F12000 X127.200 Y86.079
G1 F2700 X127.200 Y122.803 E1866.17963
G0 F12000 X127.600 Y122.803
G1 F2700 X127.600 Y86.079 E1867.09571
G0 F12000 X128.000 Y86.079
G1 F2700 X128.000 Y122.803 E1868.01180
G0 F12000 X128.400 Y122.803
G1 F2700 X128.400 Y86.079 E1868.92788
G0 F12000 X128.800 Y86.079
G1 F2700 X128.800 Y122.803 E1869.84397
G0 F12000 X129.200 Y122.803
G1 F2700 X129.200 Y86.079 E1870.76005
G0 F12000 X129.600 Y86.079
G1 F2700 X129.600 Y122.803 E1871.67613
G0 F12000 X130.000 Y122.803
G1 F2700 X130.000 Y86.079 E1872.59222
G0 F12000 X130.400 Y86.079
G1 F2700 X130.400 Y122.803 E1873.50830
G0 F12000 X130.800 Y122.803
G1 F2700 X130.800 Y86.079 E1874.42438
G0 F12000 X131.200 Y86.079
G1 F2700 X131.200 Y122.803 E1875.34047
G0 F12000 X131.600 Y122.803
G1 F2700 X131.600 Y86.079 E1876.25655
G0 F12000 X132.000 Y86.079
G1 F2700 X132.000 Y122.803 E1877.17264
G0 F12000 X132.400 Y122.803
G1 F2700 X132.400 Y86.079 E1878.08872
G0 F12000 X132.800 Y86.079
G1 F2700 X132.800 Y122.803 E1879.00480
G0 F12000 X133.200 Y122.803
G1 F2700 X133.200 Y86.079 E1879.92089
